%
O1001
(T1 D=8. CR=0. - SCHAFTFRSER)
N10 G90 G94 G17 G49 G40 G80
N15 G21
N20 G28 G91 Z0.
N25 G90

(ZYLINDER AUS BLOCK)
N30 T1 M06
N35 S10000 M03
N40 G54
N45 G68.2 X0. Y0. Z0. I0. J180. K0.
N50 G53.1
N55 M08
N60 G00 X-10.33 Y-2.674
N65 G43 Z41. H01
N70 G00 Z27.1
N75 G01 Z25. F1920.
N80 G03 X-9.118 Y-1.827 I0.431 J0.674
N85 G01 X-9.145 Y-1.688
N90 X-9.182 Y-1.463
N95 X-9.217 Y-1.238
N100 X-9.243 Y-1.013
N105 X-9.265 Y-0.788
N110 X-9.283 Y-0.563
N115 X-9.292 Y-0.338
N120 X-9.299 Y-0.113
N125 Y0.113
N130 X-9.292 Y0.338
N135 X-9.283 Y0.563
N140 X-9.265 Y0.788
N145 X-9.243 Y1.013
N150 X-9.217 Y1.238
N155 X-9.182 Y1.463
N160 X-9.145 Y1.688
N165 X-9.118 Y1.827
N170 X-9.099 Y1.913
N175 X-9.049 Y2.139
N180 X-8.994 Y2.364
N185 X-8.93 Y2.589
N190 X-8.893 Y2.716
N195 X-8.864 Y2.814
N200 X-8.788 Y3.039
N205 X-8.707 Y3.264
N210 X-8.668 Y3.369
N215 X-8.62 Y3.489
N220 X-8.523 Y3.714
N225 X-8.443 Y3.899
N230 X-8.424 Y3.94
N235 X-8.313 Y4.165
N240 X-8.218 Y4.352
N245 X-8.198 Y4.39
N250 X-8.073 Y4.615
N255 X-7.939 Y4.84
N260 X-7.799 Y5.065
N265 X-7.767 Y5.112
N270 X-7.646 Y5.29
N275 X-7.542 Y5.441
N280 X-7.488 Y5.515
N285 X-7.317 Y5.736
N290 X-7.314 Y5.74
N295 X-7.134 Y5.966
N300 X-7.092 Y6.015
N305 X-6.937 Y6.191
N310 X-6.867 Y6.27
N315 X-6.732 Y6.416
N320 X-6.642 Y6.507
N325 X-6.508 Y6.641
N330 X-6.417 Y6.731
N335 X-6.271 Y6.866
N340 X-6.191 Y6.936
N345 X-6.016 Y7.091
N350 X-5.966 Y7.134
N355 X-5.741 Y7.314
N360 X-5.738 Y7.316
N365 X-5.516 Y7.487
N370 X-5.442 Y7.541
N375 X-5.291 Y7.646
N380 X-5.113 Y7.767
N385 X-5.066 Y7.799
N390 X-4.841 Y7.939
N395 X-4.615 Y8.072
N400 X-4.39 Y8.198
N405 X-4.353 Y8.217
N410 X-4.165 Y8.313
N415 X-3.94 Y8.424
N420 X-3.901 Y8.442
N425 X-3.715 Y8.523
N430 X-3.49 Y8.62
N435 X-3.372 Y8.667
N440 X-3.265 Y8.707
N445 X-3.039 Y8.788
N450 X-2.814 Y8.864
N455 X-2.719 Y8.892
N460 X-2.589 Y8.93
N465 X-2.364 Y8.994
N470 X-2.139 Y9.049
N475 X-1.914 Y9.099
N480 X-1.832 Y9.117
N485 X-1.689 Y9.145
N490 X-1.463 Y9.182
N495 X-1.238 Y9.217
N500 X-1.013 Y9.243
N505 X-0.788 Y9.265
N510 X-0.563 Y9.283
N515 X-0.338 Y9.292
N520 X-0.113 Y9.299
N525 X0.113
N530 X0.338 Y9.292
N535 X0.563 Y9.283
N540 X0.788 Y9.265
N545 X1.013 Y9.243
N550 X1.238 Y9.217
N555 X1.463 Y9.182
N560 X1.689 Y9.145
N565 X1.832 Y9.117
N570 X1.914 Y9.099
N575 X2.139 Y9.049
N580 X2.364 Y8.994
N585 X2.589 Y8.93
N590 X2.719 Y8.892
N595 X2.814 Y8.864
N600 X3.039 Y8.788
N605 X3.265 Y8.707
N610 X3.372 Y8.667
N615 X3.49 Y8.62
N620 X3.715 Y8.523
N625 X3.901 Y8.442
N630 X3.94 Y8.424
N635 X4.165 Y8.313
N640 X4.353 Y8.217
N645 X4.39 Y8.198
N650 X4.615 Y8.072
N655 X4.841 Y7.939
N660 X5.066 Y7.799
N665 X5.113 Y7.767
N670 X5.291 Y7.646
N675 X5.442 Y7.541
N680 X5.516 Y7.487
N685 X5.738 Y7.316
N690 X5.741 Y7.314
N695 X5.966 Y7.134
N700 X6.016 Y7.091
N705 X6.191 Y6.936
N710 X6.271 Y6.866
N715 X6.417 Y6.731
N720 X6.508 Y6.641
N725 X6.642 Y6.507
N730 X6.732 Y6.416
N735 X6.867 Y6.27
N740 X6.937 Y6.191
N745 X7.092 Y6.015
N750 X7.134 Y5.966
N755 X7.314 Y5.74
N760 X7.317 Y5.736
N765 X7.488 Y5.515
N770 X7.542 Y5.441
N775 X7.646 Y5.29
N780 X7.767 Y5.112
N785 X7.799 Y5.065
N790 X7.939 Y4.84
N795 X8.073 Y4.615
N800 X8.198 Y4.39
N805 X8.218 Y4.352
N810 X8.313 Y4.165
N815 X8.424 Y3.94
N820 X8.443 Y3.899
N825 X8.523 Y3.714
N830 X8.62 Y3.489
N835 X8.668 Y3.369
N840 X8.707 Y3.264
N845 X8.788 Y3.039
N850 X8.864 Y2.814
N855 X8.893 Y2.716
N860 X8.93 Y2.589
N865 X8.994 Y2.364
N870 X9.049 Y2.139
N875 X9.099 Y1.913
N880 X9.118 Y1.827
N885 X9.145 Y1.688
N890 X9.182 Y1.463
N895 X9.217 Y1.238
N900 X9.243 Y1.013
N905 X9.265 Y0.788
N910 X9.283 Y0.563
N915 X9.292 Y0.338
N920 X9.299 Y0.113
N925 Y-0.113
N930 X9.292 Y-0.338
N935 X9.283 Y-0.563
N940 X9.265 Y-0.788
N945 X9.243 Y-1.013
N950 X9.217 Y-1.238
N955 X9.182 Y-1.463
N960 X9.145 Y-1.688
N965 X9.118 Y-1.827
N970 X9.099 Y-1.913
N975 X9.049 Y-2.139
N980 X8.994 Y-2.364
N985 X8.93 Y-2.589
N990 X8.893 Y-2.716
N995 X8.864 Y-2.814
N1000 X8.788 Y-3.039
N1005 X8.707 Y-3.264
N1010 X8.668 Y-3.369
N1015 X8.62 Y-3.489
N1020 X8.523 Y-3.714
N1025 X8.443 Y-3.899
N1030 X8.424 Y-3.94
N1035 X8.313 Y-4.165
N1040 X8.218 Y-4.352
N1045 X8.198 Y-4.39
N1050 X8.073 Y-4.615
N1055 X7.939 Y-4.84
N1060 X7.799 Y-5.065
N1065 X7.767 Y-5.112
N1070 X7.646 Y-5.29
N1075 X7.542 Y-5.441
N1080 X7.488 Y-5.515
N1085 X7.317 Y-5.736
N1090 X7.314 Y-5.74
N1095 X7.134 Y-5.966
N1100 X7.092 Y-6.015
N1105 X6.937 Y-6.191
N1110 X6.867 Y-6.27
N1115 X6.732 Y-6.416
N1120 X6.642 Y-6.507
N1125 X6.508 Y-6.641
N1130 X6.417 Y-6.731
N1135 X6.271 Y-6.866
N1140 X6.191 Y-6.936
N1145 X6.016 Y-7.091
N1150 X5.966 Y-7.134
N1155 X5.741 Y-7.314
N1160 X5.738 Y-7.316
N1165 X5.516 Y-7.487
N1170 X5.442 Y-7.541
N1175 X5.291 Y-7.646
N1180 X5.113 Y-7.767
N1185 X5.066 Y-7.799
N1190 X4.841 Y-7.939
N1195 X4.615 Y-8.072
N1200 X4.39 Y-8.198
N1205 X4.353 Y-8.217
N1210 X4.165 Y-8.313
N1215 X3.94 Y-8.424
N1220 X3.901 Y-8.442
N1225 X3.715 Y-8.523
N1230 X3.49 Y-8.62
N1235 X3.372 Y-8.667
N1240 X3.265 Y-8.707
N1245 X3.039 Y-8.788
N1250 X2.814 Y-8.864
N1255 X2.719 Y-8.892
N1260 X2.589 Y-8.93
N1265 X2.364 Y-8.994
N1270 X2.139 Y-9.049
N1275 X1.914 Y-9.099
N1280 X1.832 Y-9.117
N1285 X1.689 Y-9.145
N1290 X1.463 Y-9.182
N1295 X1.238 Y-9.217
N1300 X1.013 Y-9.243
N1305 X0.788 Y-9.265
N1310 X0.563 Y-9.283
N1315 X0.338 Y-9.292
N1320 X0.113 Y-9.299
N1325 X-0.113
N1330 X-0.338 Y-9.292
N1335 X-0.563 Y-9.283
N1340 X-0.788 Y-9.265
N1345 X-1.013 Y-9.243
N1350 X-1.238 Y-9.217
N1355 X-1.463 Y-9.182
N1360 X-1.689 Y-9.145
N1365 X-1.832 Y-9.117
N1370 X-1.914 Y-9.099
N1375 X-2.139 Y-9.049
N1380 X-2.364 Y-8.994
N1385 X-2.589 Y-8.93
N1390 X-2.719 Y-8.892
N1395 X-2.814 Y-8.864
N1400 X-3.039 Y-8.788
N1405 X-3.265 Y-8.707
N1410 X-3.372 Y-8.667
N1415 X-3.49 Y-8.62
N1420 X-3.715 Y-8.523
N1425 X-3.901 Y-8.442
N1430 X-3.94 Y-8.424
N1435 X-4.165 Y-8.313
N1440 X-4.353 Y-8.217
N1445 X-4.39 Y-8.198
N1450 X-4.615 Y-8.072
N1455 X-4.841 Y-7.939
N1460 X-5.066 Y-7.799
N1465 X-5.113 Y-7.767
N1470 X-5.291 Y-7.646
N1475 X-5.442 Y-7.541
N1480 X-5.516 Y-7.487
N1485 X-5.738 Y-7.316
N1490 X-5.741 Y-7.314
N1495 X-5.966 Y-7.134
N1500 X-6.016 Y-7.091
N1505 X-6.191 Y-6.936
N1510 X-6.271 Y-6.866
N1515 X-6.417 Y-6.731
N1520 X-6.508 Y-6.641
N1525 X-6.642 Y-6.507
N1530 X-6.732 Y-6.416
N1535 X-6.867 Y-6.27
N1540 X-6.937 Y-6.191
N1545 X-7.092 Y-6.015
N1550 X-7.134 Y-5.966
N1555 X-7.314 Y-5.74
N1560 X-7.317 Y-5.736
N1565 X-7.488 Y-5.515
N1570 X-7.542 Y-5.441
N1575 X-7.646 Y-5.29
N1580 X-7.767 Y-5.112
N1585 X-7.799 Y-5.065
N1590 X-7.939 Y-4.84
N1595 X-8.073 Y-4.615
N1600 X-8.198 Y-4.39
N1605 X-8.218 Y-4.352
N1610 X-8.313 Y-4.165
N1615 X-8.424 Y-3.94
N1620 X-8.443 Y-3.899
N1625 X-8.523 Y-3.714
N1630 X-8.62 Y-3.489
N1635 X-8.668 Y-3.369
N1640 X-8.707 Y-3.264
N1645 X-8.788 Y-3.039
N1650 X-8.864 Y-2.814
N1655 X-8.893 Y-2.716
N1660 X-8.93 Y-2.589
N1665 X-8.994 Y-2.364
N1670 X-9.049 Y-2.139
N1675 X-9.099 Y-1.913
N1680 X-9.118 Y-1.827
N1685 X-9.185 Y-1.444
N1690 X-9.239 Y-1.064 Z24.999
N1695 X-9.276 Y-0.678 Z24.997
N1700 X-9.295 Y-0.294 Z24.994
N1705 X-9.302 Y0.095 Z24.991
N1710 X-9.291 Y0.482 Z24.987
N1715 X-9.263 Y0.863 Z24.983
N1720 X-9.245 Y1.053 Z24.98
N1725 X-9.223 Y1.243 Z24.978
N1730 X-9.193 Y1.438 Z24.975
N1735 X-9.163 Y1.634 Z24.972
N1740 X-9.129 Y1.821 Z24.969
N1745 X-9.089 Y2.007 Z24.965
N1750 X-9.048 Y2.195 Z24.962
N1755 X-9.003 Y2.381 Z24.959
N1760 X-8.95 Y2.568 Z24.955
N1765 X-8.897 Y2.755 Z24.951
N1770 X-8.84 Y2.94 Z24.947
N1775 X-8.776 Y3.123 Z24.943
N1780 X-8.711 Y3.305 Z24.939
N1785 X-8.643 Y3.487 Z24.934
N1790 X-8.568 Y3.664 Z24.93
N1795 X-8.493 Y3.841 Z24.925
N1800 X-8.413 Y4.018 Z24.92
N1805 X-8.328 Y4.191 Z24.916
N1810 X-8.242 Y4.363 Z24.911
N1815 X-8.198 Y4.448 Z24.908
N1820 X-8.153 Y4.533 Z24.906
N1825 X-8.104 Y4.618 Z24.903
N1830 X-8.055 Y4.704 Z24.9
N1835 X-8.005 Y4.789 Z24.898
N1840 X-7.956 Y4.874 Z24.895
N1845 X-7.907 Y4.957 Z24.892
N1850 X-7.857 Y5.038 Z24.889
N1855 X-7.804 Y5.118 Z24.887
N1860 X-7.751 Y5.197 Z24.884
N1865 X-7.698Y5.278 Z24.881
N1870 X-7.644 Y5.358 Z24.878
N1875 X-7.59 Y5.438 Z24.875
N1880 X-7.534 Y5.517 Z24.873
N1885 X-7.476 Y5.595 Z24.87
N1890 X-7.418 Y5.672 Z24.867
N1895 X-7.359 Y5.749 Z24.864
N1900 X-7.3 Y5.827 Z24.861
N1905 X-7.241 Y5.903 Z24.858
N1910 X-7.18 Y5.979 Z24.855
N1915 X-7.118 Y6.053 Z24.851
N1920 X-7.054 Y6.127 Z24.848
N1925 X-6.99 Y6.201 Z24.845
N1930 X-6.926 Y6.275 Z24.842
N1935 X-6.862 Y6.348 Z24.839
N1940 X-6.796 Y6.42 Z24.836
N1945 X-6.729 Y6.491 Z24.832
N1950 X-6.661 Y6.56 Z24.829
N1955 X-6.593 Y6.63 Z24.826
N1960 X-6.525 Y6.699 Z24.822
N1965 X-6.458 Y6.767 Z24.819
N1970 X-6.389 Y6.834 Z24.816
N1975 X-6.319 Y6.899 Z24.813
N1980 X-6.247 Y6.963 Z24.809
N1985 X-6.175 Y7.028 Z24.806
N1990 X-6.103 Y7.093 Z24.802
N1995 X-6.03 Y7.158 Z24.799
N2000 X-5.957 Y7.222 Z24.796
N2005 X-5.881 Y7.284 Z24.792
N2010 X-5.804 Y7.345 Z24.789
N2015 X-5.727 Y7.406 Z24.785
N2020 X-5.65 Y7.467 Z24.782
N2025 X-5.575 Y7.526 Z24.779
N2030 X-5.498 Y7.584 Z24.775
N2035 X-5.42 Y7.64 Z24.772
N2040 X-5.342 Y7.695 Z24.769
N2045 X-5.261 Y7.751 Z24.765
N2050 X-5.18 Y7.807 Z24.762
N2055 X-5.099 Y7.863 Z24.758
N2060 X-5.017 Y7.918 Z24.755
N2065 X-4.936 Y7.969 Z24.751
N2070 X-4.853 Y8.02 Z24.748
N2075 X-4.688 Y8.12 Z24.741
N2080 X-4.605 Y8.17 Z24.738
N2085 X-4.521 Y8.218 Z24.735
N2090 X-4.436 Y8.265 Z24.731
N2095 X-4.35 Y8.31 Z24.728
N2100 X-4.178 Y8.4 Z24.721
N2105 X-4.092 Y8.445 Z24.718
N2110 X-4.005 Y8.488 Z24.714
N2115 X-3.916 Y8.53 Z24.711
N2120 X-3.826 Y8.571 Z24.707
N2125 X-3.646 Y8.651 Z24.7
N2130 X-3.558 Y8.69 Z24.697
N2135 X-3.469 Y8.728 Z24.694
N2140 X-3.379 Y8.763 Z24.69
N2145 X-3.289 Y8.798 Z24.687
N2150 X-3.107 Y8.865 Z24.68
N2155 X-3.016 Y8.899 Z24.677
N2160 X-2.924 Y8.931 Z24.673
N2165 X-2.83 Y8.962 Z24.67
N2170 X-2.736 Y8.991 Z24.666
N2175 X-2.547 Y9.048 Z24.66
N2180 X-2.454 Y9.076 Z24.656
N2185 X-2.361 Y9.103 Z24.653
N2190 X-2.267 Y9.127 Z24.649
N2195 X-2.173 Y9.15 Z24.646
N2200 X-1.983 Y9.195 Z24.639
N2205 X-1.888 Y9.217 Z24.636
N2210 X-1.793 Y9.238 Z24.632
N2215 X-1.697 Y9.257 Z24.629
N2220 X-1.6 Y9.274 Z24.626
N2225 X-1.311 Y9.323 Z24.615
N2230 X-1.215 Y9.338 Z24.612
N2235 X-1.118 Y9.351 Z24.609
N2240 X-1.021 Y9.362 Z24.605
N2245 X-0.826 Y9.382 Z24.598
N2250 X-0.728 Y9.392 Z24.595
N2255 X-0.631 Y9.401 Z24.591
N2260 X-0.533 Y9.408 Z24.588
N2265 X-0.436 Y9.413 Z24.585
N2270 X-0.144 Y9.425 Z24.574
N2275 X-0.047 Y9.428 Z24.571
N2280 X0.05 Y9.429 Z24.568
N2285 X0.147 Y9.428 Z24.564
N2290 X0.445 Y9.422 Z24.554
N2295 X0.544 Y9.419 Z24.55
N2300 X0.641 Y9.414 Z24.547
N2305 X0.738 Y9.407 Z24.544
N2310 X1.029 Y9.382 Z24.533
N2315 X1.126 Y9.373 Z24.53
N2320 X1.222 Y9.362 Z24.527
N2325 X1.319 Y9.349 Z24.523
N2330 X1.61 Y9.306 Z24.513
N2335 X1.707 Y9.291 Z24.509
N2340 X1.804 Y9.274 Z24.506
N2345 X1.901 Y9.255 Z24.503
N2350 X1.997 Y9.235 Z24.499
N2355 X2.189 Y9.194 Z24.492
N2360 X2.284 Y9.173 Z24.489
N2365 X2.379 Y9.15 Z24.485
N2370 X2.474 Y9.125 Z24.482
N2375 X2.568 Y9.099 Z24.479
N2380 X2.758 Y9.046 Z24.472
N2385 X2.853 Y9.019 Z24.468
N2390 X2.946 Y8.99 Z24.465
N2395 X3.039 Y8.959 Z24.461
N2400 X3.132 Y8.927 Z24.458
N2405 X3.316 Y8.863 Z24.451
N2410 X3.409 Y8.83 Z24.448
N2415 X3.5 Y8.796 Z24.444
N2420 X3.591 Y8.759 Z24.441
N2425 X3.682 Y8.721 Z24.438
N2430 X3.864 Y8.645 Z24.431
N2435 X3.955 Y8.606 Z24.427
N2440 X4.045 Y8.566 Z24.424
N2445 X4.134 Y8.524 Z24.42
N2450 X4.222 Y8.48 Z24.417
N2455 X4.397 Y8.393 Z24.41
N2460 X4.485 Y8.349 Z24.407
N2465 X4.572 Y8.304 Z24.403
N2470 X4.658 Y8.256 Z24.4
N2475 X4.744 Y8.207 Z24.396
N2480 X4.915 Y8.108 Z24.389
N2485 X5.001 Y8.058 Z24.386
N2490 X5.085 Y8.007 Z24.383
N2495 X5.167 Y7.955 Z24.379
N2500 X5.249 Y7.901 Z24.376
N2505 X5.33 Y7.847 Z24.372
N2510 X5.412 Y7.792 Z24.369
N2515 X5.494 Y7.738 Z24.365
N2520 X5.575 Y7.681 Z24.362
N2525 X5.655 Y7.624 Z24.359
N2530 X5.733 Y7.564 Z24.355
N2535 X5.89 Y7.445 Z24.348
N2540 X5.969 Y7.386 Z24.345
N2545 X6.046 Y7.325 Z24.341
N2550 X6.122 Y7.262 Z24.338
N2555 X6.197 Y7.198 Z24.334
N2560 X6.272 Y7.133 Z24.331
N2565 X6.346 Y7.069 Z24.328
N2570 X6.421 Y7.004 Z24.324
N2575 X6.495 Y6.938 Z24.321
N2580 X6.567 Y6.871 Z24.317
N2585 X6.638 Y6.802 Z24.314
N2590 X6.779 Y6.664 Z24.307
N2595 X6.849 Y6.595 Z24.303
N2600 X6.918 Y6.525 Z24.3
N2605 X6.986 Y6.454 Z24.297
N2610 X7.052 Y6.381 Z24.293
N2615 X7.118 Y6.308 Z24.29
N2620 X7.184 Y6.235 Z24.286
N2625 X7.25 Y6.161 Z24.283
N2630 X7.315 Y6.087 Z24.279
N2635 X7.378 Y6.011 Z24.276
N2640 X7.44 Y5.934 Z24.272
N2645 X7.563 Y5.778 Z24.266
N2650 X7.625 Y5.701 Z24.262
N2655 X7.685 Y5.623 Z24.259
N2660 X7.743 Y5.544 Z24.255
N2665 X7.8 Y5.463 Z24.252
N2670 X7.856 Y5.383 Z24.248
N2675 X7.913 Y5.301 Z24.245
N2680 X7.969 Y5.22 Z24.241
N2685 X8.025 Y5.137 Z24.238
N2690 X8.079 Y5.054 Z24.235
N2695 X8.13 Y4.97 Z24.231
N2700 X8.182 Y4.886 Z24.228
N2705 X8.233 Y4.801 Z24.224
N2710 X8.284 Y4.717 Z24.221
N2715 X8.334 Y4.632 Z24.217
N2720 X8.382 Y4.546 Z24.214
N2725 X8.429 Y4.459 Z24.21
N2730 X8.475 Y4.371 Z24.207
N2735 X8.521 Y4.283 Z24.203
N2740 X8.567 Y4.196 Z24.2
N2745 X8.611 Y4.108 Z24.197
N2750 X8.654 Y4.019 Z24.193
N2755 X8.696 Y3.928 Z24.19
N2760 X8.736 Y3.838 Z24.186
N2765 X8.777 Y3.747 Z24.183
N2770 X8.817 Y3.656 Z24.179
N2775 X8.856 Y3.566 Z24.176
N2780 X8.894 Y3.474 Z24.173
N2785 X8.929 Y3.382 Z24.169
N2790 X8.964 Y3.289 Z24.166
N2795 X8.998 Y3.196 Z24.163
N2800 X9.032 Y3.104 Z24.16
N2805 X9.066 Y3.01 Z24.156
N2810 X9.098 Y2.917 Z24.153
N2815 X9.128 Y2.822 Z24.15
N2820 X9.156 Y2.727 Z24.147
N2825 X9.185 Y2.632 Z24.144
N2830 X9.214 Y2.537 Z24.141
N2835 X9.241 Y2.442 Z24.138
N2840 X9.267 Y2.346 Z24.135
N2845 X9.291 Y2.25 Z24.132
N2850 X9.313 Y2.154 Z24.129
N2855 X9.336 Y2.057 Z24.126
N2860 X9.359 Y1.96 Z24.123
N2865 X9.381 Y1.863 Z24.12
N2870 X9.4 Y1.766 Z24.117
N2875 X9.418 Y1.669 Z24.114
N2880 X9.435 Y1.571 Z24.111
N2885 X9.451 Y1.473 Z24.108
N2890 X9.468 Y1.375 Z24.106
N2895 X9.483 Y1.277 Z24.103
N2900 X9.497 Y1.179 Z24.1
N2905 X9.509 Y1.08 Z24.097
N2910 X9.519 Y0.982 Z24.095
N2915 X9.529 Y0.883 Z24.092
N2920 X9.539 Y0.784 Z24.09
N2925 X9.549 Y0.685 Z24.087
N2930 X9.557 Y0.586 Z24.084
N2935 X9.566 Y0.387 Z24.079
N2940 X9.574 Y0.189 Z24.075
N2945 X9.579 Y-0.01 Z24.07
N2950 X9.576 Y-0.208 Z24.065
N2955 X9.571 Y-0.407 Z24.061
N2960 X9.564 Y-0.605 Z24.057
N2965 X9.549 Y-0.804 Z24.052
N2970 X9.531 Y-1.002 Z24.048
N2975 X9.511 Y-1.2 Z24.045
N2980 X9.484 Y-1.397 Z24.041
N2985 X9.454 Y-1.593 Z24.037
N2990 X9.421 Y-1.789 Z24.034
N2995 X9.381 Y-1.984 Z24.03
N3000 X9.339 Y-2.179 Z24.027
N3005 X9.295 Y-2.373 Z24.024
N3010 X9.243 Y-2.565 Z24.022
N3015 X9.188 Y-2.756 Z24.019
N3020 X9.131 Y-2.947 Z24.016
N3025 X9.001 Y-3.323 Z24.012
N3030 X8.857 Y-3.694 Z24.008
N3035 X8.698 Y-4.059 Z24.005
N3040 X8.521 Y-4.416 Z24.003
N3045 X8.331 Y-4.766 Z24.001
N3050 X8.128 Y-5.109 Z24.
N3055 X7.996 Y-5.309
N3060 X7.856 Y-5.515
N3065 X7.767 Y-5.642
N3070 X7.694 Y-5.74
N3075 X7.542 Y-5.936
N3080 X7.519 Y-5.966
N3085 X7.337 Y-6.191
N3090 X7.317 Y-6.213
N3095 X7.139 Y-6.416
N3100 X7.092 Y-6.469
N3105 X6.932 Y-6.641
N3110 X6.867 Y-6.706
N3115 X6.707 Y-6.866
N3120 X6.642 Y-6.931
N3125 X6.47 Y-7.091
N3130 X6.417 Y-7.138
N3135 X6.214 Y-7.316
N3140 X6.191 Y-7.336
N3145 X5.966 Y-7.519
N3150 X5.937 Y-7.541
N3155 X5.741 Y-7.693
N3160 X5.643 Y-7.767
N3165 X5.516 Y-7.855
N3170 X5.291 Y-8.008
N3175 X5.066 Y-8.154
N3180 X4.961 Y-8.217
N3185 X4.841 Y-8.288
N3190 X4.615 Y-8.418
N3195 X4.571 Y-8.442
N3200 X4.39 Y-8.535
N3205 X4.165 Y-8.649
N3210 X4.128 Y-8.667
N3215 X3.94 Y-8.753
N3220 X3.715 Y-8.85
N3225 X3.617 Y-8.892
N3230 X3.49 Y-8.943
N3235 X3.265 Y-9.025
N3240 X3.039 Y-9.106
N3245 X3.005 Y-9.117
N3250 X2.814 Y-9.177
N3255 X2.589 Y-9.242
N3260 X2.364 Y-9.304
N3265 X2.202 Y-9.342
N3270 X2.139 Y-9.356
N3275 X1.914 Y-9.407
N3280 X1.689 Y-9.45
N3285 X1.463 Y-9.485
N3290 X1.238 Y-9.52
N3295 X1.013 Y-9.545
N3300 X0.773 Y-9.567
N3305 X0.563 Y-9.583
N3310 X0.338 Y-9.592
N3315 X0.113 Y-9.599
N3320 X-0.113
N3325 X-0.338 Y-9.592
N3330 X-0.563 Y-9.583
N3335 X-0.773 Y-9.567
N3340 X-1.013 Y-9.545
N3345 X-1.238 Y-9.52
N3350 X-1.463 Y-9.485
N3355 X-1.689 Y-9.45
N3360 X-1.914 Y-9.407
N3365 X-2.139 Y-9.356
N3370 X-2.202 Y-9.342
N3375 X-2.364 Y-9.304
N3380 X-2.589 Y-9.242
N3385 X-2.814 Y-9.177
N3390 X-3.005 Y-9.117
N3395 X-3.039 Y-9.106
N3400 X-3.265 Y-9.025
N3405 X-3.49 Y-8.943
N3410 X-3.617 Y-8.892
N3415 X-3.715 Y-8.85
N3420 X-3.94 Y-8.753
N3425 X-4.128 Y-8.667
N3430 X-4.165 Y-8.649
N3435 X-4.39 Y-8.535
N3440 X-4.571 Y-8.442
N3445 X-4.615 Y-8.418
N3450 X-4.841 Y-8.288
N3455 X-4.961 Y-8.217
N3460 X-5.066 Y-8.154
N3465 X-5.291 Y-8.008
N3470 X-5.516 Y-7.855
N3475 X-5.643 Y-7.767
N3480 X-5.741 Y-7.693
N3485 X-5.937 Y-7.541
N3490 X-5.966 Y-7.519
N3495 X-6.191 Y-7.336
N3500 X-6.214 Y-7.316
N3505 X-6.417 Y-7.138
N3510 X-6.47 Y-7.091
N3515 X-6.642 Y-6.931
N3520 X-6.707 Y-6.866
N3525 X-6.867 Y-6.706
N3530 X-6.932 Y-6.641
N3535 X-7.092 Y-6.469
N3540 X-7.139 Y-6.416
N3545 X-7.317 Y-6.213
N3550 X-7.337 Y-6.191
N3555 X-7.519 Y-5.966
N3560 X-7.542 Y-5.936
N3565 X-7.694 Y-5.74
N3570 X-7.767 Y-5.642
N3575 X-7.856 Y-5.515
N3580 X-8.009 Y-5.29
N3585 X-8.154 Y-5.065
N3590 X-8.218 Y-4.959
N3595 X-8.288 Y-4.84
N3600 X-8.418 Y-4.615
N3605 X-8.443 Y-4.569
N3610 X-8.535 Y-4.39
N3615 X-8.649 Y-4.165
N3620 X-8.668 Y-4.126
N3625 X-8.753 Y-3.94
N3630 X-8.85 Y-3.714
N3635 X-8.893 Y-3.615
N3640 X-8.943 Y-3.489
N3645 X-9.026 Y-3.264
N3650 X-9.106 Y-3.039
N3655 X-9.118 Y-3.003
N3660 X-9.177 Y-2.814
N3665 X-9.242 Y-2.589
N3670 X-9.304 Y-2.364
N3675 X-9.343 Y-2.197
N3680 X-9.356 Y-2.139
N3685 X-9.407 Y-1.913
N3690 X-9.45 Y-1.688
N3695 X-9.486 Y-1.463
N3700 X-9.52 Y-1.238
N3705 X-9.545 Y-1.013
N3710 X-9.569 Y-0.76
N3715 X-9.583 Y-0.563
N3720 X-9.592 Y-0.338
N3725 X-9.599 Y-0.113
N3730 Y0.113
N3735 X-9.592 Y0.338
N3740 X-9.583 Y0.563
N3745 X-9.569 Y0.76
N3750 X-9.545 Y1.013
N3755 X-9.52 Y1.238
N3760 X-9.486 Y1.463
N3765 X-9.45 Y1.688
N3770 X-9.407 Y1.913
N3775 X-9.356 Y2.139
N3780 X-9.343 Y2.197
N3785 X-9.304 Y2.364
N3790 X-9.242 Y2.589
N3795 X-9.177 Y2.814
N3800 X-9.118 Y3.003
N3805 X-9.106 Y3.039
N3810 X-9.026 Y3.264
N3815 X-8.943 Y3.489
N3820 X-8.893 Y3.615
N3825 X-8.85 Y3.714
N3830 X-8.753 Y3.94
N3835 X-8.668 Y4.126
N3840 X-8.649 Y4.165
N3845 X-8.535 Y4.39
N3850 X-8.443 Y4.569
N3855 X-8.418 Y4.615
N3860 X-8.288 Y4.84
N3865 X-8.218 Y4.959
N3870 X-8.154 Y5.065
N3875 X-8.009 Y5.29
N3880 X-7.856 Y5.515
N3885 X-7.767 Y5.642
N3890 X-7.694 Y5.74
N3895 X-7.542 Y5.936
N3900 X-7.519 Y5.966
N3905 X-7.337 Y6.191
N3910 X-7.317 Y6.213
N3915 X-7.139 Y6.416
N3920 X-7.092 Y6.469
N3925 X-6.932 Y6.641
N3930 X-6.867 Y6.706
N3935 X-6.707 Y6.866
N3940 X-6.642 Y6.931
N3945 X-6.47 Y7.091
N3950 X-6.417 Y7.138
N3955 X-6.214 Y7.316
N3960 X-6.191 Y7.336
N3965 X-5.966 Y7.519
N3970 X-5.937 Y7.541
N3975 X-5.741 Y7.693
N3980 X-5.643 Y7.767
N3985 X-5.516 Y7.855
N3990 X-5.291 Y8.008
N3995 X-5.066 Y8.154
N4000 X-4.961 Y8.217
N4005 X-4.841 Y8.288
N4010 X-4.615 Y8.418
N4015 X-4.571 Y8.442
N4020 X-4.39 Y8.535
N4025 X-4.165 Y8.649
N4030 X-4.128 Y8.667
N4035 X-3.94 Y8.753
N4040 X-3.715 Y8.85
N4045 X-3.617 Y8.892
N4050 X-3.49 Y8.943
N4055 X-3.265 Y9.025
N4060 X-3.039 Y9.106
N4065 X-3.005 Y9.117
N4070 X-2.814 Y9.177
N4075 X-2.589 Y9.242
N4080 X-2.364 Y9.304
N4085 X-2.202 Y9.342
N4090 X-2.139 Y9.356
N4095 X-1.914 Y9.407
N4100 X-1.689 Y9.45
N4105 X-1.463 Y9.485
N4110 X-1.238 Y9.52
N4115 X-1.013 Y9.545
N4120 X-0.773 Y9.567
N4125 X-0.563 Y9.583
N4130 X-0.338 Y9.592
N4135 X-0.113 Y9.599
N4140 X0.113
N4145 X0.338 Y9.592
N4150 X0.563 Y9.583
N4155 X0.773 Y9.567
N4160 X1.013 Y9.545
N4165 X1.238 Y9.52
N4170 X1.463 Y9.485
N4175 X1.689 Y9.45
N4180 X1.914 Y9.407
N4185 X2.139 Y9.356
N4190 X2.202 Y9.342
N4195 X2.364 Y9.304
N4200 X2.589 Y9.242
N4205 X2.814 Y9.177
N4210 X3.005 Y9.117
N4215 X3.039 Y9.106
N4220 X3.265 Y9.025
N4225 X3.49 Y8.943
N4230 X3.617 Y8.892
N4235 X3.715 Y8.85
N4240 X3.94 Y8.753
N4245 X4.128 Y8.667
N4250 X4.165 Y8.649
N4255 X4.39 Y8.535
N4260 X4.571 Y8.442
N4265 X4.615 Y8.418
N4270 X4.841 Y8.288
N4275 X4.961 Y8.217
N4280 X5.066 Y8.154
N4285 X5.291 Y8.008
N4290 X5.516 Y7.855
N4295 X5.643 Y7.767
N4300 X5.741 Y7.693
N4305 X5.937 Y7.541
N4310 X5.966 Y7.519
N4315 X6.191 Y7.336
N4320 X6.214 Y7.316
N4325 X6.417 Y7.138
N4330 X6.47 Y7.091
N4335 X6.642 Y6.931
N4340 X6.707 Y6.866
N4345 X6.867 Y6.706
N4350 X6.932 Y6.641
N4355 X7.092 Y6.469
N4360 X7.139 Y6.416
N4365 X7.317 Y6.213
N4370 X7.337 Y6.191
N4375 X7.519 Y5.966
N4380 X7.542 Y5.936
N4385 X7.694 Y5.74
N4390 X7.767 Y5.642
N4395 X7.856 Y5.515
N4400 X8.009 Y5.29
N4405 X8.154 Y5.065
N4410 X8.218 Y4.959
N4415 X8.288 Y4.84
N4420 X8.418 Y4.615
N4425 X8.443 Y4.569
N4430 X8.535 Y4.39
N4435 X8.649 Y4.165
N4440 X8.668 Y4.126
N4445 X8.753 Y3.94
N4450 X8.85 Y3.714
N4455 X8.893 Y3.615
N4460 X8.943 Y3.489
N4465 X9.026 Y3.264
N4470 X9.106 Y3.039
N4475 X9.118 Y3.003
N4480 X9.177 Y2.814
N4485 X9.242 Y2.589
N4490 X9.304 Y2.364
N4495 X9.343 Y2.197
N4500 X9.356 Y2.139
N4505 X9.407 Y1.913
N4510 X9.45 Y1.688
N4515 X9.486 Y1.463
N4520 X9.52 Y1.238
N4525 X9.545 Y1.013
N4530 X9.569 Y0.76
N4535 X9.583 Y0.563
N4540 X9.592 Y0.338
N4545 X9.599 Y0.113
N4550 Y-0.113
N4555 X9.592 Y-0.338
N4560 X9.583 Y-0.563
N4565 X9.569 Y-0.76
N4570 X9.545 Y-1.013
N4575 X9.52 Y-1.238
N4580 X9.486 Y-1.463
N4585 X9.45 Y-1.688
N4590 X9.407 Y-1.913
N4595 X9.356 Y-2.139
N4600 X9.343 Y-2.197
N4605 X9.304 Y-2.364
N4610 X9.242 Y-2.589
N4615 X9.177 Y-2.814
N4620 X9.118 Y-3.003
N4625 X9.106 Y-3.039
N4630 X9.026 Y-3.264
N4635 X8.943 Y-3.489
N4640 X8.893 Y-3.615
N4645 X8.85 Y-3.714
N4650 X8.753 Y-3.94
N4655 X8.668 Y-4.126
N4660 X8.649 Y-4.165
N4665 X8.535 Y-4.39
N4670 X8.443 Y-4.569
N4675 X8.418 Y-4.615
N4680 X8.288 Y-4.84
N4685 X8.218 Y-4.959
N4690 X8.154 Y-5.065
N4695 X8.009 Y-5.29
N4700 X7.996 Y-5.309
N4705 X7.777 Y-5.628
N4710 X7.543 Y-5.936 Z23.999
N4715 X7.303 Y-6.23 Z23.997
N4720 X7.046 Y-6.522 Z23.994
N4725 X6.776 Y-6.801 Z23.991
N4730 X6.497 Y-7.072 Z23.987
N4735 X6.213 Y-7.324 Z23.983
N4740 X6.064 Y-7.449 Z23.98
N4745 X5.911 Y-7.57 Z23.978
N4750 X5.758 Y-7.69 Z23.975
N4755 X5.603 Y-7.806 Z23.972
N4760 X5.444 Y-7.916 Z23.969
N4765 X5.284 Y-8.025 Z23.965
N4770 X5.124 Y-8.131 Z23.962
N4775 X4.961 Y-8.231 Z23.958
N4780 X4.796 Y-8.33 Z23.955
N4785 X4.629 Y-8.427 Z23.951
N4790 X4.456 Y-8.519 Z23.947
N4795 X4.281 Y-8.61 Z23.943
N4800 X4.11 Y-8.696 Z23.939
N4805 X3.937 Y-8.776 Z23.934
N4810 X3.76 Y-8.854 Z23.93
N4815 X3.583 Y-8.93 Z23.925
N4820 X3.401 Y-9.002 Z23.92
N4825 X3.217 Y-9.07 Z23.916
N4830 X3.037 Y-9.135 Z23.911
N4835 X2.946 Y-9.166 Z23.908
N4840 X2.854 Y-9.195 Z23.905
N4845 X2.76 Y-9.223 Z23.903
N4850 X2.666 Y-9.251 Z23.9
N4855 X2.571 Y-9.279 Z23.897
N4860 X2.477 Y-9.307 Z23.895
N4865 X2.384 Y-9.333 Z23.892
N4870 X2.291 Y-9.356 Z23.889
N4875 X2.198 Y-9.378 Z23.887
N4880 X2.104 Y-9.4 Z23.884
N4885 X2.01 Y-9.422 Z23.881
N4890 X1.916 Y-9.444 Z23.878
N4895 X1.821 Y-9.464 Z23.875
N4900 X1.726 Y-9.482 Z23.872
N4905 X1.63 Y-9.499 Z23.869
N4910 X1.534 Y-9.515 Z23.866
N4915 X1.438 Y-9.531 Z23.863
N4920 X1.343 Y-9.547 Z23.86
N4925 X1.247 Y-9.562 Z23.857
N4930 X1.152 Y-9.574 Z23.854
N4935 X1.056 Y-9.586 Z23.851
N4940 X0.96 Y-9.596 Z23.848
N4945 X0.862 Y-9.606 Z23.845
N4950 X0.765 Y-9.616 Z23.842
N4955 X0.667 Y-9.625 Z23.839
N4960 X0.569 Y-9.633 Z23.835
N4965 X0.472 Y-9.638 Z23.832
N4970 X0.375 Y-9.642 Z23.829
N4975 X0.278 Y-9.646 Z23.826
N4980 X0.182 Y-9.65 Z23.822
N4985 X0.086 Y-9.654 Z23.819
N4990 X-0.01 Y-9.655 Z23.816
N4995 X-0.106 Z23.812
N5000 X-0.202 Y-9.653 Z23.809
N5005 X-0.299 Y-9.651 Z23.806
N5010 X-0.396 Y-9.649 Z23.802
N5015 X-0.493 Y-9.647 Z23.799
N5020 X-0.59 Y-9.643 Z23.795
N5025 X-0.688 Y-9.637 Z23.792
N5030 X-0.786 Y-9.63 Z23.789
N5035 X-0.884 Y-9.622 Z23.785
N5040 X-0.982 Y-9.613 Z23.782
N5045 X-1.078 Y-9.605 Z23.778
N5050 X-1.174 Y-9.596 Z23.775
N5055 X-1.27 Y-9.585 Z23.772
N5060 X-1.366 Y-9.571 Z23.768
N5065 X-1.463 Y-9.557 Z23.765
N5070 X-1.559 Y-9.543 Z23.761
N5075 X-1.656 Y-9.528 Z23.758
N5080 X-1.752 Y-9.513 Z23.755
N5085 X-1.848 Y-9.496 Z23.751
N5090 X-1.943 Y-9.478 Z23.748
N5095 X-2.038 Y-9.458 Z23.744
N5100 X-2.133 Y-9.437 Z23.741
N5105 X-2.228 Y-9.417 Z23.738
N5110 X-2.322 Y-9.397 Z23.734
N5115 X-2.416 Y-9.374 Z23.731
N5120 X-2.51 Y-9.35 Z23.728
N5125 X-2.605 Y-9.324 Z23.724
N5130 X-2.795 Y-9.271 Z23.717
N5135 X-2.89 Y-9.244 Z23.714
N5140 X-2.983 Y-9.216 Z23.71
N5145 X-3.075 Y-9.187 Z23.707
N5150 X-3.166 Y-9.155 Z23.704
N5155 X-3.258 Y-9.124 Z23.7
N5160 X-3.35 Y-9.091 Z23.697
N5165 X-3.443 Y-9.059 Z23.693
N5170 X-3.536 Y-9.025 Z23.69
N5175 X-3.627 Y-8.989 Z23.686
N5180 X-3.717 Y-8.953 Z23.683
N5185 X-3.807 Y-8.915 Z23.68
N5190 X-3.987 Y-8.84 Z23.673
N5195 X-4.075 Y-8.801 Z23.67
N5200 X-4.163 Y-8.761 Z23.666
N5205 X-4.251 Y-8.719 Z23.663
N5210 X-4.337 Y-8.676 Z23.659
N5215 X-4.514 Y-8.589 Z23.653
N5220 X-4.602 Y-8.544 Z23.649
N5225 X-4.69 Y-8.498 Z23.646
N5230 X-4.775 Y-8.451 Z23.642
N5235 X-4.859 Y-8.403 Z23.639
N5240 X-5.028 Y-8.305 Z23.632
N5245 X-5.112 Y-8.256 Z23.629
N5250 X-5.195 Y-8.206 Z23.625
N5255 X-5.277 Y-8.154 Z23.622
N5260 X-5.358 Y-8.101 Z23.618
N5265 X-5.521 Y-7.993 Z23.612
N5270 X-5.603 Y-7.939 Z23.608
N5275 X-5.684 Y-7.883 Z23.605
N5280 X-5.763 Y-7.826 Z23.601
N5285 X-5.842 Y-7.768 Z23.598
N5290 X-5.998 Y-7.649 Z23.591
N5295 X-6.075 Y-7.591 Z23.588
N5300 X-6.152 Y-7.531 Z23.584
N5305 X-6.228 Y-7.47 Z23.581
N5310 X-6.302 Y-7.408 Z23.578
N5315 X-6.376 Y-7.344 Z23.574
N5320 X-6.525 Y-7.216 Z23.567
N5325 X-6.599 Y-7.151 Z23.564
N5330 X-6.671 Y-7.085 Z23.56
N5335 X-6.743 Y-7.018 Z23.557
N5340 X-6.813 Y-6.949 Z23.554
N5345 X-6.954 Y-6.812 Z23.547
N5350 X-7.023 Y-6.743 Z23.543
N5355 X-7.092 Y-6.673 Z23.54
N5360 X-7.16 Y-6.601 Z23.536
N5365 X-7.226 Y-6.529 Z23.533
N5370 X-7.357 Y-6.384 Z23.526
N5375 X-7.422 Y-6.311 Z23.523
N5380 X-7.486 Y-6.237 Z23.519
N5385 X-7.549 Y-6.163 Z23.516
N5390 X-7.61 Y-6.087 Z23.512
N5395 X-7.732 Y-5.933 Z23.506
N5400 X-7.793 Y-5.856 Z23.502
N5405 X-7.853 Y-5.779 Z23.499
N5410 X-7.912 Y-5.7 Z23.495
N5415 X-7.969 Y-5.62 Z23.492
N5420 X-8.025 Y-5.54 Z23.489
N5425 X-8.137 Y-5.378 Z23.482
N5430 X-8.192 Y-5.298 Z23.478
N5435 X-8.246 Y-5.216 Z23.475
N5440 X-8.299 Y-5.133 Z23.471
N5445 X-8.349 Y-5.05 Z23.468
N5450 X-8.451 Y-4.882 Z23.461
N5455 X-8.502 Y-4.798 Z23.458
N5460 X-8.551 Y-4.713 Z23.454
N5465 X-8.599 Y-4.627 Z23.451
N5470 X-8.645 Y-4.539 Z23.447
N5475 X-8.737 Y-4.364 Z23.44
N5480 X-8.782 Y-4.277 Z23.437
N5485 X-8.826 Y-4.19 Z23.434
N5490 X-8.868 Y-4.102 Z23.43
N5495 X-8.909 Y-4.013 Z23.427
N5500 X-8.949 Y-3.923 Z23.423
N5505 X-9.028 Y-3.744 Z23.417
N5510 X-9.067 Y-3.654 Z23.413
N5515 X-9.105 Y-3.562 Z23.41
N5520 X-9.141 Y-3.47 Z23.406
N5525 X-9.175 Y-3.377 Z23.403
N5530 X-9.244 Y-3.193 Z23.396
N5535 X-9.277 Y-3.101 Z23.392
N5540 X-9.309 Y-3.008 Z23.389
N5545 X-9.339 Y-2.915 Z23.386
N5550 X-9.368 Y-2.82 Z23.382
N5555 X-9.425 Y-2.631 Z23.375
N5560 X-9.454 Y-2.536 Z23.372
N5565 X-9.48 Y-2.441 Z23.368
N5570 X-9.505 Y-2.346 Z23.365
N5575 X-9.528 Y-2.251 Z23.362
N5580 X-9.55 Y-2.155 Z23.358
N5585 X-9.573 Y-2.059 Z23.355
N5590 X-9.595 Y-1.963 Z23.351
N5595 X-9.616 Y-1.867 Z23.348
N5600 X-9.635 Y-1.771 Z23.344
N5605 X-9.653 Y-1.673 Z23.341
N5610 X-9.685 Y-1.479 Z23.334
N5615 X-9.702 Y-1.382 Z23.331
N5620 X-9.717 Y-1.284 Z23.327
N5625 X-9.731 Y-1.187 Z23.324
N5630 X-9.742 Y-1.089 Z23.32
N5635 X-9.753 Y-0.991 Z23.317
N5640 X-9.773 Y-0.794 Z23.31
N5645 X-9.783 Y-0.696 Z23.306
N5650 X-9.791 Y-0.597 Z23.303
N5655 X-9.797 Y-0.498 Z23.3
N5660 X-9.801 Y-0.4 Z23.296
N5665 X-9.809 Y-0.203 Z23.289
N5670 X-9.813 Y-0.105 Z23.286
N5675 X-9.815 Y-0.006 Z23.282
N5680 Y0.092 Z23.279
N5685 X-9.814 Y0.19 Z23.275
N5690 X-9.81 Y0.388 Z23.269
N5695 X-9.808 Y0.486 Z23.265
N5700 X-9.804 Y0.585 Z23.262
N5705 X-9.798 Y0.684 Z23.258
N5710 X-9.791 Y0.783 Z23.255
N5715 X-9.774 Y0.981 Z23.248
N5720 X-9.766 Y1.079 Z23.244
N5725 X-9.757 Y1.177 Z23.241
N5730 X-9.745 Y1.275 Z23.237
N5735 X-9.733 Y1.373 Z23.234
N5740 X-9.718 Y1.471 Z23.231
N5745 X-9.704 Y1.569 Z23.227
N5750 X-9.689 Y1.667 Z23.224
N5755 X-9.674 Y1.765 Z23.22
N5760 X-9.657 Y1.862 Z23.217
N5765 X-9.638 Y1.959 Z23.213
N5770 X-9.618 Y2.056 Z23.21
N5775 X-9.597 Y2.153 Z23.206
N5780 X-9.577 Y2.249 Z23.203
N5785 X-9.556 Y2.346 Z23.199
N5790 X-9.533 Y2.442 Z23.196
N5795 X-9.509 Y2.538 Z23.193
N5800 X-9.483 Y2.634 Z23.189
N5805 X-9.456 Y2.729 Z23.186
N5810 X-9.429 Y2.825 Z23.182
N5815 X-9.402 Y2.92 Z23.179
N5820 X-9.374 Y3.015 Z23.176
N5825 X-9.344 Y3.11 Z23.172
N5830 X-9.312 Y3.203 Z23.169
N5835 X-9.28 Y3.297 Z23.166
N5840 X-9.247 Y3.39 Z23.162
N5845 X-9.215 Y3.484 Z23.159
N5850 X-9.181 Y3.577 Z23.156
N5855 X-9.145 Y3.67 Z23.153
N5860 X-9.108 Y3.762 Z23.15
N5865 X-9.069 Y3.853 Z23.146
N5870 X-9.031 Y3.945 Z23.143
N5875 X-8.992 Y4.036 Z23.14
N5880 X-8.953 Y4.127 Z23.137
N5885 X-8.912 Y4.217 Z23.134
N5890 X-8.87 Y4.306 Z23.131
N5895 X-8.826 Y4.395 Z23.128
N5900 X-8.782 Y4.484 Z23.125
N5905 X-8.737 Y4.573 Z23.122
N5910 X-8.693 Y4.662 Z23.119
N5915 X-8.646 Y4.75 Z23.116
N5920 X-8.599 Y4.837 Z23.114
N5925 X-8.549 Y4.923 Z23.111
N5930 X-8.499 Y5.008 Z23.108
N5935 X-8.45 Y5.094 Z23.105
N5940 X-8.4 Y5.18 Z23.102
N5945 X-8.349 Y5.265 Z23.1
N5950 X-8.296 Y5.349 Z23.097
N5955 X-8.241 Y5.432 Z23.094
N5960 X-8.186 Y5.515 Z23.092
N5965 X-8.131 Y5.597 Z23.089
N5970 X-8.076 Y5.68 Z23.087
N5975 X-8.019 Y5.761 Z23.084
N5980 X-7.902 Y5.922 Z23.079
N5985 X-7.782 Y6.08 Z23.074
N5990 X-7.661 Y6.238 Z23.07
N5995 X-7.534 Y6.391 Z23.065
N6000 X-7.404 Y6.541 Z23.061
N6005 X-7.273 Y6.69 Z23.056
N6010 X-7.138 Y6.836 Z23.052
N6015 X-6.999 Y6.978 Z23.048
N6020 X-6.859 Y7.12 Z23.044
N6025 X-6.715 Y7.257 Z23.04
N6030 X-6.567 Y7.39 Z23.037
N6035 X-6.419 Y7.523 Z23.033
N6040 X-6.267 Y7.652 Z23.03
N6045 X-6.112 Y7.775 Z23.027
N6050 X-5.955 Y7.898 Z23.024
N6055 X-5.796 Y8.018 Z23.021
N6060 X-5.633 Y8.132 Z23.019
N6065 X-5.469 Y8.244 Z23.016
N6070 X-5.134 Y8.459 Z23.012
N6075 X-4.79 Y8.661 Z23.008
N6080 X-4.438 Y8.846 Z23.005
N6085 X-4.079 Y9.019 Z23.003
N6090 X-3.713 Y9.176 Z23.001
N6095 X-3.341 Y9.317 Z23.
N6100 X-3.129 Y9.391
N6105 X-3.039 Y9.422
N6110 X-2.814 Y9.489
N6115 X-2.589 Y9.554
N6120 X-2.543 Y9.567
N6125 X-2.364 Y9.613
N6130 X-2.139 Y9.664
N6135 X-1.914 Y9.713
N6140 X-1.689 Y9.753
N6145 X-1.442 Y9.793
N6150 X-1.238 Y9.822
N6155 X-1.013 Y9.846
N6160 X-0.788 Y9.867
N6165 X-0.563 Y9.884
N6170 X-0.338 Y9.892
N6175 X-0.113 Y9.899
N6180 X0.113
N6185 X0.338 Y9.892
N6190 X0.563 Y9.884
N6195 X0.788 Y9.867
N6200 X1.013 Y9.846
N6205 X1.238 Y9.822
N6210 X1.442 Y9.793
N6215 X1.689 Y9.753
N6220 X1.914 Y9.713
N6225 X2.139 Y9.664
N6230 X2.364 Y9.613
N6235 X2.543 Y9.567
N6240 X2.589 Y9.554
N6245 X2.814 Y9.489
N6250 X3.039 Y9.422
N6255 X3.265 Y9.344
N6260 X3.49 Y9.263
N6265 X3.715 Y9.176
N6270 X3.853 Y9.117
N6275 X3.94 Y9.08
N6280 X4.165 Y8.981
N6285 X4.35 Y8.892
N6290 X4.39 Y8.871
N6295 X4.615 Y8.757
N6300 X4.785 Y8.667
N6305 X4.841 Y8.635
N6310 X5.066 Y8.503
N6315 X5.17 Y8.442
N6320 X5.291 Y8.367
N6325 X5.516 Y8.218
N6330 X5.741 Y8.065
N6335 X5.843 Y7.992
N6340 X5.966 Y7.899
N6345 X6.136 Y7.767
N6350 X6.191 Y7.724
N6355 X6.412 Y7.541
N6360 X6.417 Y7.538
N6365 X6.642 Y7.34
N6370 X6.668 Y7.316
N6375 X6.867 Y7.131
N6380 X6.906 Y7.091
N6385 X7.092 Y6.906
N6390 X7.131 Y6.866
N6395 X7.317 Y6.667
N6400 X7.34 Y6.641
N6405 X7.539 Y6.416
N6410 X7.542 Y6.412
N6415 X7.724 Y6.191
N6420 X7.767 Y6.135
N6425 X7.899 Y5.966
N6430 X7.993 Y5.842
N6435 X8.065 Y5.74
N6440 X8.218 Y5.517
N6445 X8.219 Y5.515
N6450 X8.368 Y5.29
N6455 X8.443 Y5.167
N6460 X8.503 Y5.065
N6465 X8.636 Y4.84
N6470 X8.668 Y4.783
N6475 X8.757 Y4.615
N6480 X8.872 Y4.39
N6485 X8.893 Y4.348
N6490 X8.981 Y4.165
N6495 X9.08 Y3.94
N6500 X9.118 Y3.851
N6505 X9.176 Y3.714
N6510 X9.263 Y3.489
N6515 X9.344 Y3.264
N6520 X9.422 Y3.039
N6525 X9.49 Y2.814
N6530 X9.555 Y2.589
N6535 X9.569 Y2.539
N6540 X9.613 Y2.364
N6545 X9.664 Y2.139
N6550 X9.713 Y1.913
N6555 X9.754 Y1.688
N6560 X9.794 Y1.437
N6565 X9.822 Y1.238
N6570 X9.846 Y1.013
N6575 X9.867 Y0.788
N6580 X9.884 Y0.563
N6585 X9.892 Y0.338
N6590 X9.899 Y0.113
N6595 Y-0.113
N6600 X9.892 Y-0.338
N6605 X9.884 Y-0.563
N6610 X9.867 Y-0.788
N6615 X9.846 Y-1.013
N6620 X9.822 Y-1.238
N6625 X9.794 Y-1.437
N6630 X9.754 Y-1.688
N6635 X9.713 Y-1.913
N6640 X9.664 Y-2.139
N6645 X9.613 Y-2.364
N6650 X9.569 Y-2.539
N6655 X9.555 Y-2.589
N6660 X9.49 Y-2.814
N6665 X9.422 Y-3.039
N6670 X9.344 Y-3.264
N6675 X9.263 Y-3.489
N6680 X9.176 Y-3.714
N6685 X9.118 Y-3.851
N6690 X9.08 Y-3.94
N6695 X8.981 Y-4.165
N6700 X8.893 Y-4.348
N6705 X8.872 Y-4.39
N6710 X8.757 Y-4.615
N6715 X8.668 Y-4.783
N6720 X8.636 Y-4.84
N6725 X8.503 Y-5.065
N6730 X8.443 Y-5.167
N6735 X8.368 Y-5.29
N6740 X8.246 Y-5.474
N6745 X8.219 Y-5.515
N6750 X8.218 Y-5.517
N6755 X8.065 Y-5.74
N6760 X7.993 Y-5.842
N6765 X7.899 Y-5.966
N6770 X7.767 Y-6.135
N6775 X7.724 Y-6.191
N6780 X7.542 Y-6.412
N6785 X7.539 Y-6.416
N6790 X7.34 Y-6.641
N6795 X7.317 Y-6.667
N6800 X7.131 Y-6.866
N6805 X7.092 Y-6.906
N6810 X6.906 Y-7.091
N6815 X6.867 Y-7.131
N6820 X6.668 Y-7.316
N6825 X6.642 Y-7.34
N6830 X6.417 Y-7.538
N6835 X6.412 Y-7.541
N6840 X6.191 Y-7.724
N6845 X6.136 Y-7.767
N6850 X5.966 Y-7.899
N6855 X5.843 Y-7.992
N6860 X5.741 Y-8.065
N6865 X5.516 Y-8.218
N6870 X5.291 Y-8.367
N6875 X5.17 Y-8.442
N6880 X5.066 Y-8.503
N6885 X4.841 Y-8.635
N6890 X4.785 Y-8.667
N6895 X4.615 Y-8.757
N6900 X4.39 Y-8.871
N6905 X4.35 Y-8.892
N6910 X4.165 Y-8.981
N6915 X3.94 Y-9.08
N6920 X3.853 Y-9.117
N6925 X3.715 Y-9.176
N6930 X3.49 Y-9.263
N6935 X3.265 Y-9.344
N6940 X3.039 Y-9.422
N6945 X2.814 Y-9.489
N6950 X2.589 Y-9.554
N6955 X2.543 Y-9.567
N6960 X2.364 Y-9.613
N6965 X2.139 Y-9.664
N6970 X1.914 Y-9.713
N6975 X1.689 Y-9.753
N6980 X1.442 Y-9.793
N6985 X1.238 Y-9.822
N6990 X1.013 Y-9.846
N6995 X0.788 Y-9.867
N7000 X0.563 Y-9.884
N7005 X0.338 Y-9.892
N7010 X0.113 Y-9.899
N7015 X-0.113
N7020 X-0.338 Y-9.892
N7025 X-0.563 Y-9.884
N7030 X-0.788 Y-9.867
N7035 X-1.013 Y-9.846
N7040 X-1.238 Y-9.822
N7045 X-1.442 Y-9.793
N7050 X-1.689 Y-9.753
N7055 X-1.914 Y-9.713
N7060 X-2.139 Y-9.664
N7065 X-2.364 Y-9.613
N7070 X-2.543 Y-9.567
N7075 X-2.589 Y-9.554
N7080 X-2.814 Y-9.489
N7085 X-3.039 Y-9.422
N7090 X-3.265 Y-9.344
N7095 X-3.49 Y-9.263
N7100 X-3.715 Y-9.176
N7105 X-3.853 Y-9.117
N7110 X-3.94 Y-9.08
N7115 X-4.165 Y-8.981
N7120 X-4.35 Y-8.892
N7125 X-4.39 Y-8.871
N7130 X-4.615 Y-8.757
N7135 X-4.785 Y-8.667
N7140 X-4.841 Y-8.635
N7145 X-5.066 Y-8.503
N7150 X-5.17 Y-8.442
N7155 X-5.291 Y-8.367
N7160 X-5.516 Y-8.218
N7165 X-5.741 Y-8.065
N7170 X-5.843 Y-7.992
N7175 X-5.966 Y-7.899
N7180 X-6.136 Y-7.767
N7185 X-6.191 Y-7.724
N7190 X-6.412 Y-7.541
N7195 X-6.417 Y-7.538
N7200 X-6.642 Y-7.34
N7205 X-6.668 Y-7.316
N7210 X-6.867 Y-7.131
N7215 X-6.906 Y-7.091
N7220 X-7.092 Y-6.906
N7225 X-7.131 Y-6.866
N7230 X-7.317 Y-6.667
N7235 X-7.34 Y-6.641
N7240 X-7.539 Y-6.416
N7245 X-7.542 Y-6.412
N7250 X-7.724 Y-6.191
N7255 X-7.767 Y-6.135
N7260 X-7.899 Y-5.966
N7265 X-7.993 Y-5.842
N7270 X-8.065 Y-5.74
N7275 X-8.218 Y-5.517
N7280 X-8.219 Y-5.515
N7285 X-8.368 Y-5.29
N7290 X-8.443 Y-5.167
N7295 X-8.503 Y-5.065
N7300 X-8.636 Y-4.84
N7305 X-8.668 Y-4.783
N7310 X-8.757 Y-4.615
N7315 X-8.872 Y-4.39
N7320 X-8.893 Y-4.348
N7325 X-8.981 Y-4.165
N7330 X-9.08 Y-3.94
N7335 X-9.118 Y-3.851
N7340 X-9.176 Y-3.714
N7345 X-9.263 Y-3.489
N7350 X-9.344 Y-3.264
N7355 X-9.422 Y-3.039
N7360 X-9.49 Y-2.814
N7365 X-9.555 Y-2.589
N7370 X-9.569 Y-2.539
N7375 X-9.613 Y-2.364
N7380 X-9.664 Y-2.139
N7385 X-9.706 Y-1.948
N7390 X-9.713 Y-1.913
N7395 X-9.754 Y-1.688
N7400 X-9.794 Y-1.437
N7405 X-9.822 Y-1.238
N7410 X-9.846 Y-1.013
N7415 X-9.867 Y-0.788
N7420 X-9.884 Y-0.563
N7425 X-9.892 Y-0.338
N7430 X-9.899 Y-0.113
N7435 Y0.113
N7440 X-9.892 Y0.338
N7445 X-9.884 Y0.563
N7450 X-9.867 Y0.788
N7455 X-9.846 Y1.013
N7460 X-9.822 Y1.238
N7465 X-9.794 Y1.437
N7470 X-9.754 Y1.688
N7475 X-9.713 Y1.913
N7480 X-9.664 Y2.139
N7485 X-9.613 Y2.364
N7490 X-9.569 Y2.539
N7495 X-9.555 Y2.589
N7500 X-9.49 Y2.814
N7505 X-9.422 Y3.039
N7510 X-9.344 Y3.264
N7515 X-9.263 Y3.489
N7520 X-9.176 Y3.714
N7525 X-9.118 Y3.851
N7530 X-9.08 Y3.94
N7535 X-8.981 Y4.165
N7540 X-8.893 Y4.348
N7545 X-8.872 Y4.39
N7550 X-8.757 Y4.615
N7555 X-8.668 Y4.783
N7560 X-8.636 Y4.84
N7565 X-8.503 Y5.065
N7570 X-8.443 Y5.167
N7575 X-8.368 Y5.29
N7580 X-8.219 Y5.515
N7585 X-8.218 Y5.517
N7590 X-8.065 Y5.74
N7595 X-7.993 Y5.842
N7600 X-7.899 Y5.966
N7605 X-7.767 Y6.135
N7610 X-7.724 Y6.191
N7615 X-7.542 Y6.412
N7620 X-7.539 Y6.416
N7625 X-7.34 Y6.641
N7630 X-7.317 Y6.667
N7635 X-7.131 Y6.866
N7640 X-7.092 Y6.906
N7645 X-6.906 Y7.091
N7650 X-6.867 Y7.131
N7655 X-6.668 Y7.316
N7660 X-6.642 Y7.34
N7665 X-6.417 Y7.538
N7670 X-6.412 Y7.541
N7675 X-6.191 Y7.724
N7680 X-6.136 Y7.767
N7685 X-5.966 Y7.899
N7690 X-5.843 Y7.992
N7695 X-5.741 Y8.065
N7700 X-5.516 Y8.218
N7705 X-5.291 Y8.367
N7710 X-5.17 Y8.442
N7715 X-5.066 Y8.503
N7720 X-4.841 Y8.635
N7725 X-4.785 Y8.667
N7730 X-4.615 Y8.757
N7735 X-4.39 Y8.871
N7740 X-4.35 Y8.892
N7745 X-4.165 Y8.981
N7750 X-3.94 Y9.08
N7755 X-3.853 Y9.117
N7760 X-3.715 Y9.176
N7765 X-3.49 Y9.263
N7770 X-3.265 Y9.344
N7775 X-3.129 Y9.391
N7780 X-2.758 Y9.506
N7785 X-2.386 Y9.608 Z22.999
N7790 X-2.008 Y9.694 Z22.997
N7795 X-1.631 Y9.764 Z22.994
N7800 X-1.243 Y9.824 Z22.991
N7805 X-0.86 Y9.865 Z22.987
N7810 X-0.48 Y9.892 Z22.983
N7815 X-0.286 Y9.9 Z22.98
N7820 X-0.092 Y9.906 Z22.977
N7825 X0.103 Y9.907 Z22.975
N7830 X0.297 Y9.902 Z22.972
N7835 X0.491 Y9.896 Z22.969
N7840 X0.684 Y9.886 Z22.965
N7845 X0.877 Y9.87 Z22.962
N7850 X1.071 Y9.853 Z22.958
N7855 X1.261 Y9.833 Z22.955
N7860 X1.451 Y9.806 Z22.951
N7865 X1.646 Y9.776 Z22.947
N7870 X1.841 Y9.745 Z22.943
N7875 X2.029 Y9.707 Z22.938
N7880 X2.217 Y9.667 Z22.934
N7885 X2.403 Y9.625 Z22.93
N7890 X2.588 Y9.578 Z22.925
N7895 X2.775 Y9.525 Z22.92
N7900 X2.962 Y9.473 Z22.915
N7905 X3.055 Y9.444 Z22.913
N7910 X3.148 Y9.414 Z22.91
N7915 X3.24 Y9.382 Z22.908
N7920 X3.332 Y9.35 Z22.905
N7925 X3.423 Y9.318 Z22.903
N7930 X3.514 Y9.286 Z22.9
N7935 X3.605 Y9.253 Z22.897
N7940 X3.695 Y9.218 Z22.895
N7945 X3.786 Y9.181 Z22.892
N7950 X3.876 Y9.144 Z22.889
N7955 X3.967 Y9.105 Z22.886
N7960 X4.057 Y9.067 Z22.883
N7965 X4.146 Y9.029 Z22.881
N7970 X4.233 Y8.99 Z22.878
N7975 X4.32 Y8.949 Z22.875
N7980 X4.407 Y8.906 Z22.872
N7985 X4.493 Y8.863 Z22.869
N7990 X4.58 Y8.82 Z22.866
N7995 X4.667 Y8.776 Z22.863
N8000 X4.753 Y8.732 Z22.86
N8005 X4.839 Y8.686 Z22.857
N8010 X4.924 Y8.638 Z22.854
N8015 X5.009 Y8.589 Z22.851
N8020 X5.093 Y8.54 Z22.848
N8025 X5.176 Y8.492 Z22.845
N8030 X5.259 Y8.443 Z22.842
N8035 X5.341 Y8.393 Z22.838
N8040 X5.422 Y8.342 Z22.835
N8045 X5.504 Y8.287 Z22.832
N8050 X5.586 Y8.232 Z22.829
N8055 X5.669 Y8.178 Z22.825
N8060 X5.751 Y8.123 Z22.822
N8065 X5.83 Y8.068 Z22.819
N8070 X5.908 Y8.012 Z22.815
N8075 X5.986 Y7.955 Z22.812
N8080 X6.062 Y7.897 Z22.809
N8085 X6.14 Y7.838 Z22.805
N8090 X6.217 Y7.779 Z22.802
N8095 X6.294 Y7.719 Z22.798
N8100 X6.371 Y7.658 Z22.795
N8105 X6.446 Y7.595 Z22.792
N8110 X6.52 Y7.532 Z22.788
N8115 X6.594 Y7.468 Z22.785
N8120 X6.668 Y7.404 Z22.781
N8125 X6.741 Y7.341 Z22.778
N8130 X6.812 Y7.277 Z22.775
N8135 X6.882 Y7.211 Z22.771
N8140 X6.951 Y7.145 Z22.768
N8145 X7.021 Y7.076 Z22.765
N8150 X7.091 Y7.008 Z22.761
N8155 X7.161 Y6.939 Z22.758
N8160 X7.23 Y6.87 Z22.754
N8165 X7.298 Y6.8 Z22.751
N8170 X7.364 Y6.728 Z22.747
N8175 X7.43 Y6.655 Z22.744
N8180 X7.495 Y6.583 Z22.741
N8185 X7.561 Y6.51 Z22.737
N8190 X7.626 Y6.437 Z22.734
N8195 X7.69 Y6.362 Z22.73
N8200 X7.753 Y6.287 Z22.727
N8205 X7.813 Y6.211 Z22.724
N8210 X7.934 Y6.058 Z22.717
N8215 X7.995 Y5.982 Z22.713
N8220 X8.054 Y5.905 Z22.71
N8225 X8.111 Y5.827 Z22.707
N8230 X8.168 Y5.748 Z22.703
N8235 X8.224 Y5.669 Z22.7
N8240 X8.335 Y5.509 Z22.693
N8245 X8.39 Y5.428 Z22.69
N8250 X8.443 Y5.347 Z22.686
N8255 X8.496 Y5.264 Z22.683
N8260 X8.547 Y5.181 Z22.679
N8265 X8.649 Y5.013 Z22.672
N8270 X8.699 Y4.93 Z22.669
N8275 X8.747 Y4.847 Z22.666
N8280 X8.794 Y4.762 Z22.662
N8285 X8.84 Y4.677 Z22.659
N8290 X8.932 Y4.502 Z22.652
N8295 X8.978 Y4.414 Z22.649
N8300 X9.023 Y4.326 Z22.645
N8305 X9.065 Y4.239 Z22.642
N8310 X9.106 Y4.151 Z22.638
N8315 X9.146 Y4.062 Z22.635
N8320 X9.186 Y3.974 Z22.632
N8325 X9.225 Y3.885 Z22.628
N8330 X9.264 Y3.796 Z22.625
N8335 X9.302 Y3.707 Z22.621
N8340 X9.338 Y3.617 Z22.618
N8345 X9.374 Y3.524 Z22.615
N8350 X9.443 Y3.339 Z22.608
N8355 X9.477 Y3.246 Z22.604
N8360 X9.51 Y3.155 Z22.601
N8365 X9.541 Y3.063 Z22.597
N8370 X9.571 Y2.97 Z22.594
N8375 X9.599 Y2.877 Z22.591
N8380 X9.655 Y2.691 Z22.584
N8385 X9.683 Y2.597 Z22.58
N8390 X9.709 Y2.503 Z22.577
N8395 X9.734 Y2.407 Z22.574
N8400 X9.757 Y2.312 Z22.57
N8405 X9.802 Y2.119 Z22.563
N8410 X9.825 Y2.024 Z22.56
N8415 X9.846 Y1.929 Z22.556
N8420 X9.865 Y1.834 Z22.553
N8425 X9.883 Y1.738 Z22.55
N8430 X9.899 Y1.641 Z22.546
N8435 X9.932 Y1.447 Z22.539
N8440 X9.947 Y1.35 Z22.536
N8445 X9.962 Y1.253 Z22.532
N8450 X9.974 Y1.156 Z22.529
N8455 X9.985 Y1.059 Z22.526
N8460 X10.005 Y0.864 Z22.519
N8465 X10.015 Y0.766 Z22.515
N8470 X10.024 Y0.667 Z22.512
N8475 X10.031 Y0.569 Z22.508
N8480 X10.036 Y0.471 Z22.505
N8485 X10.045 Y0.275 Z22.498
N8490 X10.049 Y0.177 Z22.495
N8495 X10.052 Y0.08 Z22.491
N8500 X10.054 Y-0.018 Z22.488
N8505 X10.053 Y-0.115 Z22.485
N8510 X10.052 Y-0.213 Z22.481
N8515 X10.048 Y-0.409 Z22.474
N8520 X10.045 Y-0.507 Z22.471
N8525 X10.041 Y-0.605 Z22.467
N8530 X10.036 Y-0.704 Z22.464
N8535 X10.029 Y-0.802 Z22.461
N8540 X10.012 Y-0.999 Z22.454
N8545 X10.004 Y-1.096 Z22.45
N8550 X9.995 Y-1.194 Z22.447
N8555 X9.984 Y-1.292 Z22.443
N8560 X9.971 Y-1.389 Z22.44
N8565 X9.957 Y-1.486 Z22.437
N8570 X9.928 Y-1.681 Z22.43
N8575 X9.913 Y-1.779 Z22.426
N8580 X9.897 Y-1.875 Z22.423
N8585 X9.879 Y-1.972 Z22.419
N8590 X9.859 Y-2.068 Z22.416
N8595 X9.839 Y-2.164 Z22.412
N8600 X9.798 Y-2.357 Z22.406
N8605 X9.776 Y-2.454 Z22.402
N8610 X9.752 Y-2.55 Z22.399
N8615 X9.728 Y-2.645 Z22.395
N8620 X9.701 Y-2.739 Z22.392
N8625 X9.648 Y-2.929 Z22.385
N8630 X9.621 Y-3.023 Z22.382
N8635 X9.593 Y-3.117 Z22.378
N8640 X9.563 Y-3.21 Z22.375
N8645 X9.531 Y-3.303 Z22.371
N8650 X9.466 Y-3.489 Z22.364
N8655 X9.434 Y-3.583 Z22.361
N8660 X9.4 Y-3.675 Z22.357
N8665 X9.364 Y-3.767 Z22.354
N8670 X9.327 Y-3.859 Z22.351
N8675 X9.251 Y-4.04 Z22.344
N8680 X9.213 Y-4.131 Z22.34
N8685 X9.174 Y-4.221 Z22.337
N8690 X9.134 Y-4.311 Z22.333
N8695 X9.092 Y-4.4 Z22.33
N8700 X9.048 Y-4.489 Z22.327
N8705 X8.96 Y-4.667 Z22.32
N8710 X8.916 Y-4.755 Z22.316
N8715 X8.87 Y-4.842 Z22.313
N8720 X8.824 Y-4.929 Z22.309
N8725 X8.775 Y-5.015 Z22.306
N8730 X8.726 Y-5.1 Z22.302
N8735 X8.677 Y-5.185 Z22.299
N8740 X8.627 Y-5.271 Z22.295
N8745 X8.577 Y-5.356 Z22.292
N8750 X8.525 Y-5.44 Z22.289
N8755 X8.472 Y-5.524 Z22.285
N8760 X8.418 Y-5.606 Z22.282
N8765 X8.309 Y-5.77 Z22.275
N8770 X8.254 Y-5.852 Z22.271
N8775 X8.197 Y-5.933 Z22.268
N8780 X8.14 Y-6.013 Z22.264
N8785 X8.081 Y-6.092 Z22.261
N8790 X8.021 Y-6.171 Z22.258
N8795 X7.902 Y-6.329 Z22.251
N8800 X7.841 Y-6.407 Z22.247
N8805 X7.779 Y-6.484 Z22.244
N8810 X7.716 Y-6.56 Z22.24
N8815 X7.651 Y-6.635 Z22.237
N8820 X7.586 Y-6.71 Z22.233
N8825 X7.522 Y-6.785 Z22.23
N8830 X7.456 Y-6.859 Z22.226
N8835 X7.39 Y-6.933 Z22.223
N8840 X7.322 Y-7.005 Z22.22
N8845 X7.254 Y-7.076 Z22.216
N8850 X7.185 Y-7.147 Z22.213
N8855 X7.116 Y-7.217 Z22.209
N8860 X7.047 Y-7.288 Z22.206
N8865 X6.976 Y-7.357 Z22.202
N8870 X6.905 Y-7.426 Z22.199
N8875 X6.832 Y-7.493 Z22.195
N8880 X6.759 Y-7.56 Z22.192
N8885 X6.685 Y-7.626 Z22.189
N8890 X6.611 Y-7.692 Z22.185
N8895 X6.537 Y-7.758 Z22.182
N8900 X6.462 Y-7.823 Z22.178
N8905 X6.385 Y-7.886 Z22.175
N8910 X6.308 Y-7.948 Z22.172
N8915 X6.231 Y-8.009 Z22.168
N8920 X6.153 Y-8.071 Z22.165
N8925 X6.075 Y-8.132 Z22.162
N8930 X5.996 Y-8.192 Z22.159
N8935 X5.917 Y-8.251 Z22.155
N8940 X5.836 Y-8.308 Z22.152
N8945 X5.754 Y-8.365 Z22.149
N8950 X5.673 Y-8.422 Z22.146
N8955 X5.591 Y-8.478 Z22.143
N8960 X5.509 Y-8.534 Z22.14
N8965 X5.426 Y-8.588 Z22.137
N8970 X5.342 Y-8.641 Z22.134
N8975 X5.258 Y-8.693 Z22.131
N8980 X5.173 Y-8.744 Z22.128
N8985 X5.088 Y-8.795 Z22.125
N8990 X5.003 Y-8.846 Z22.122
N8995 X4.917 Y-8.896 Z22.119
N9000 X4.83 Y-8.944 Z22.116
N9005 X4.742 Y-8.991 Z22.113
N9010 X4.654 Y-9.037 Z22.11
N9015 X4.566 Y-9.082 Z22.107
N9020 X4.478 Y-9.128 Z22.105
N9025 X4.39 Y-9.173 Z22.102
N9030 X4.3 Y-9.216 Z22.099
N9035 X4.211 Y-9.258 Z22.097
N9040 X4.12 Y-9.298 Z22.094
N9045 X4.029 Y-9.338 Z22.091
N9050 X3.938 Y-9.379 Z22.089
N9055 X3.847 Y-9.418 Z22.086
N9060 X3.755 Y-9.457 Z22.084
N9065 X3.57 Y-9.528 Z22.079
N9070 X3.384 Y-9.597 Z22.074
N9075 X3.197 Y-9.664 Z22.069
N9080 X3.008 Y-9.725 Z22.065
N9085 X2.817 Y-9.782 Z22.06
N9090 X2.626 Y-9.838 Z22.056
N9095 X2.434 Y-9.889 Z22.052
N9100 X2.24 Y-9.934 Z22.048
N9105 X2.047 Y-9.978 Z22.044
N9110 X1.852 Y-10.018 Z22.04
N9115 X1.656 Y-10.051 Z22.037
N9120 X1.459 Y-10.084 Z22.033
N9125 X1.262 Y-10.112 Z22.03
N9130 X1.065 Y-10.135 Z22.027
N9135 X0.867 Y-10.154 Z22.024
N9140 X0.668 Y-10.172 Z22.021
N9145 X0.47 Y-10.182 Z22.018
N9150 X0.271 Y-10.19 Z22.016
N9155 X-0.127 Y-10.195 Z22.012
N9160 X-0.525 Y-10.183 Z22.008
N9165 X-0.922 Y-10.155 Z22.005
N9170 X-1.319 Y-10.114 Z22.002
N9175 X-1.712 Y-10.053 Z22.001
N9180 X-2.104 Y-9.979 Z22.
N9185 X-2.303 Y-9.935
N9190 X-2.364 Y-9.921
N9195 X-2.589 Y-9.866
N9200 X-2.814 Y-9.802
N9205 X-2.846 Y-9.793
N9210 X-3.039 Y-9.736
N9215 X-3.265 Y-9.663
N9220 X-3.49 Y-9.582
N9225 X-3.531 Y-9.567
N9230 X-3.715 Y-9.499
N9235 X-3.94 Y-9.407
N9240 X-4.165 Y-9.309
N9245 X-4.39 Y-9.207
N9250 X-4.569 Y-9.117
N9255 X-4.615 Y-9.094
N9260 X-4.841 Y-8.978
N9265 X-4.996 Y-8.892
N9270 X-5.066 Y-8.852
N9275 X-5.291 Y-8.719
N9280 X-5.377 Y-8.667
N9285 X-5.516 Y-8.58
N9290 X-5.721 Y-8.442
N9295 X-5.741 Y-8.428
N9300 X-5.966 Y-8.273
N9305 X-6.043 Y-8.217
N9310 X-6.191 Y-8.104
N9315 X-6.336 Y-7.992
N9320 X-6.417 Y-7.928
N9325 X-6.611 Y-7.767
N9330 X-6.642 Y-7.739
N9335 X-6.867 Y-7.541
N9340 X-7.092 Y-7.33
N9345 X-7.106 Y-7.316
N9350 X-7.317 Y-7.105
N9355 X-7.33 Y-7.091
N9360 X-7.542 Y-6.866
N9365 Y-6.865
N9370 X-7.74 Y-6.641
N9375 X-7.767 Y-6.61
N9380 X-7.929 Y-6.416
N9385 X-7.993 Y-6.334
N9390 X-8.104 Y-6.191
N9395 X-8.218 Y-6.042
N9400 X-8.273 Y-5.966
N9405 X-8.429 Y-5.74
N9410 X-8.443 Y-5.72
N9415 X-8.58 Y-5.515
N9420 X-8.668 Y-5.376
N9425 X-8.719 Y-5.29
N9430 X-8.852 Y-5.065
N9435 X-8.893 Y-4.995
N9440 X-8.978 Y-4.84
N9445 X-9.094 Y-4.615
N9450 X-9.118 Y-4.567
N9455 X-9.207 Y-4.39
N9460 X-9.309 Y-4.165
N9465 X-9.343 Y-4.086
N9470 X-9.407 Y-3.94
N9475 X-9.499 Y-3.714
N9480 X-9.569 Y-3.528
N9485 X-9.582 Y-3.489
N9490 X-9.663 Y-3.264
N9495 X-9.736 Y-3.039
N9500 X-9.794 Y-2.843
N9505 X-9.802 Y-2.814
N9510 X-9.865 Y-2.589
N9515 X-9.921 Y-2.364
N9520 X-9.971 Y-2.139
N9525 X-9.998 Y-2.01
N9530 X-10.019 Y-1.913
N9535 X-10.058 Y-1.688
N9540 X-10.093 Y-1.463
N9545 X-10.125 Y-1.238
N9550 X-10.147 Y-1.013
N9555 X-10.169 Y-0.788
N9560 X-10.184 Y-0.563
N9565 X-10.192 Y-0.338
N9570 X-10.199 Y-0.113
N9575 Y0.113
N9580 X-10.192 Y0.338
N9585 X-10.184 Y0.563
N9590 X-10.169 Y0.788
N9595 X-10.147 Y1.013
N9600 X-10.125 Y1.238
N9605 X-10.093 Y1.463
N9610 X-10.058 Y1.688
N9615 X-10.019 Y1.913
N9620 X-9.971 Y2.139
N9625 X-9.921 Y2.364
N9630 X-9.865 Y2.589
N9635 X-9.802 Y2.814
N9640 X-9.794 Y2.843
N9645 X-9.736 Y3.039
N9650 X-9.663 Y3.264
N9655 X-9.582 Y3.489
N9660 X-9.569 Y3.528
N9665 X-9.499 Y3.714
N9670 X-9.407 Y3.94
N9675 X-9.343 Y4.086
N9680 X-9.309 Y4.165
N9685 X-9.207 Y4.39
N9690 X-9.118 Y4.567
N9695 X-9.094 Y4.615
N9700 X-8.978 Y4.84
N9705 X-8.893 Y4.995
N9710 X-8.852 Y5.065
N9715 X-8.719 Y5.29
N9720 X-8.668 Y5.376
N9725 X-8.58 Y5.515
N9730 X-8.443 Y5.72
N9735 X-8.429 Y5.74
N9740 X-8.273 Y5.966
N9745 X-8.218 Y6.042
N9750 X-8.104 Y6.191
N9755 X-7.993 Y6.334
N9760 X-7.929 Y6.416
N9765 X-7.767 Y6.61
N9770 X-7.74 Y6.641
N9775 X-7.542 Y6.865
N9780 Y6.866
N9785 X-7.33 Y7.091
N9790 X-7.317 Y7.105
N9795 X-7.106 Y7.316
N9800 X-7.092 Y7.33
N9805 X-6.867 Y7.541
N9810 X-6.642 Y7.739
N9815 X-6.611 Y7.767
N9820 X-6.417 Y7.928
N9825 X-6.336 Y7.992
N9830 X-6.191 Y8.104
N9835 X-6.043 Y8.217
N9840 X-5.966 Y8.273
N9845 X-5.741 Y8.428
N9850 X-5.721 Y8.442
N9855 X-5.516 Y8.58
N9860 X-5.377 Y8.667
N9865 X-5.291 Y8.719
N9870 X-5.066 Y8.852
N9875 X-4.996 Y8.892
N9880 X-4.841 Y8.978
N9885 X-4.615 Y9.094
N9890 X-4.569 Y9.117
N9895 X-4.39 Y9.207
N9900 X-4.165 Y9.309
N9905 X-3.94 Y9.407
N9910 X-3.715 Y9.499
N9915 X-3.531 Y9.567
N9920 X-3.49 Y9.582
N9925 X-3.265 Y9.663
N9930 X-3.039 Y9.736
N9935 X-2.846 Y9.793
N9940 X-2.814 Y9.802
N9945 X-2.589 Y9.866
N9950 X-2.364 Y9.921
N9955 X-2.139 Y9.971
N9960 X-1.919 Y10.018
N9965 X-1.914 Y10.019
N9970 X-1.689 Y10.057
N9975 X-1.463 Y10.093
N9980 X-1.238 Y10.124
N9985 X-1.013 Y10.148
N9990 X-0.788 Y10.169
N9995 X-0.563 Y10.184
N10000 X-0.338 Y10.192
N10005 X-0.113 Y10.199
N10010 X0.113
N10015 X0.338 Y10.192
N10020 X0.563 Y10.184
N10025 X0.788 Y10.169
N10030 X1.013 Y10.148
N10035 X1.238 Y10.124
N10040 X1.463 Y10.093
N10045 X1.689 Y10.057
N10050 X1.914 Y10.019
N10055 X1.919 Y10.018
N10060 X2.139 Y9.971
N10065 X2.364 Y9.921
N10070 X2.589 Y9.866
N10075 X2.814 Y9.802
N10080 X2.846 Y9.793
N10085 X3.039 Y9.736
N10090 X3.265 Y9.663
N10095 X3.49 Y9.582
N10100 X3.531 Y9.567
N10105 X3.715 Y9.499
N10110 X3.94 Y9.407
N10115 X4.165 Y9.309
N10120 X4.39 Y9.207
N10125 X4.569 Y9.117
N10130 X4.615 Y9.094
N10135 X4.841 Y8.978
N10140 X4.996 Y8.892
N10145 X5.066 Y8.852
N10150 X5.291 Y8.719
N10155 X5.377 Y8.667
N10160 X5.516 Y8.58
N10165 X5.721 Y8.442
N10170 X5.741 Y8.428
N10175 X5.966 Y8.273
N10180 X6.043 Y8.217
N10185 X6.191 Y8.104
N10190 X6.336 Y7.992
N10195 X6.417 Y7.928
N10200 X6.611 Y7.767
N10205 X6.642 Y7.739
N10210 X6.867 Y7.541
N10215 X7.092 Y7.33
N10220 X7.106 Y7.316
N10225 X7.317 Y7.105
N10230 X7.33 Y7.091
N10235 X7.542 Y6.866
N10240 Y6.865
N10245 X7.74 Y6.641
N10250 X7.767 Y6.61
N10255 X7.929 Y6.416
N10260 X7.993 Y6.334
N10265 X8.104 Y6.191
N10270 X8.218 Y6.042
N10275 X8.273 Y5.966
N10280 X8.429 Y5.74
N10285 X8.443 Y5.72
N10290 X8.58 Y5.515
N10295 X8.668 Y5.376
N10300 X8.719 Y5.29
N10305 X8.852 Y5.065
N10310 X8.893 Y4.995
N10315 X8.978 Y4.84
N10320 X9.094 Y4.615
N10325 X9.118 Y4.567
N10330 X9.207 Y4.39
N10335 X9.309 Y4.165
N10340 X9.343 Y4.086
N10345 X9.407 Y3.94
N10350 X9.499 Y3.714
N10355 X9.569 Y3.528
N10360 X9.582 Y3.489
N10365 X9.663 Y3.264
N10370 X9.736 Y3.039
N10375 X9.794 Y2.843
N10380 X9.802 Y2.814
N10385 X9.865 Y2.589
N10390 X9.921 Y2.364
N10395 X9.971 Y2.139
N10400 X10.019 Y1.913
N10405 X10.058 Y1.688
N10410 X10.093 Y1.463
N10415 X10.125 Y1.238
N10420 X10.147 Y1.013
N10425 X10.169 Y0.788
N10430 X10.184 Y0.563
N10435 X10.192 Y0.338
N10440 X10.199 Y0.113
N10445 Y-0.113
N10450 X10.192 Y-0.338
N10455 X10.184 Y-0.563
N10460 X10.169 Y-0.788
N10465 X10.147 Y-1.013
N10470 X10.125 Y-1.238
N10475 X10.093 Y-1.463
N10480 X10.058 Y-1.688
N10485 X10.019 Y-1.913
N10490 X9.971 Y-2.139
N10495 X9.921 Y-2.364
N10500 X9.865 Y-2.589
N10505 X9.802 Y-2.814
N10510 X9.794 Y-2.843
N10515 X9.736 Y-3.039
N10520 X9.663 Y-3.264
N10525 X9.582 Y-3.489
N10530 X9.569 Y-3.528
N10535 X9.499 Y-3.714
N10540 X9.407 Y-3.94
N10545 X9.343 Y-4.086
N10550 X9.309 Y-4.165
N10555 X9.207 Y-4.39
N10560 X9.118 Y-4.567
N10565 X9.094 Y-4.615
N10570 X8.978 Y-4.84
N10575 X8.893 Y-4.995
N10580 X8.852 Y-5.065
N10585 X8.719 Y-5.29
N10590 X8.668 Y-5.376
N10595 X8.58 Y-5.515
N10600 X8.443 Y-5.72
N10605 X8.429 Y-5.74
N10610 X8.273 Y-5.966
N10615 X8.218 Y-6.042
N10620 X8.104 Y-6.191
N10625 X7.993 Y-6.334
N10630 X7.929 Y-6.416
N10635 X7.767 Y-6.61
N10640 X7.74 Y-6.641
N10645 X7.542 Y-6.865
N10650 Y-6.866
N10655 X7.33 Y-7.091
N10660 X7.317 Y-7.105
N10665 X7.106 Y-7.316
N10670 X7.092 Y-7.33
N10675 X6.867 Y-7.541
N10680 X6.642 Y-7.739
N10685 X6.611 Y-7.767
N10690 X6.417 Y-7.928
N10695 X6.336 Y-7.992
N10700 X6.191 Y-8.104
N10705 X6.043 Y-8.217
N10710 X5.966 Y-8.273
N10715 X5.741 Y-8.428
N10720 X5.721 Y-8.442
N10725 X5.516 Y-8.58
N10730 X5.377 Y-8.667
N10735 X5.291 Y-8.719
N10740 X5.066 Y-8.852
N10745 X4.996 Y-8.892
N10750 X4.841 Y-8.978
N10755 X4.615 Y-9.094
N10760 X4.569 Y-9.117
N10765 X4.39 Y-9.207
N10770 X4.165 Y-9.309
N10775 X3.94 Y-9.407
N10780 X3.715 Y-9.499
N10785 X3.531 Y-9.567
N10790 X3.49 Y-9.582
N10795 X3.265 Y-9.663
N10800 X3.039 Y-9.736
N10805 X2.846 Y-9.793
N10810 X2.814 Y-9.802
N10815 X2.589 Y-9.866
N10820 X2.364 Y-9.921
N10825 X2.139 Y-9.971
N10830 X1.919 Y-10.018
N10835 X1.914 Y-10.019
N10840 X1.689 Y-10.057
N10845 X1.463 Y-10.093
N10850 X1.238 Y-10.124
N10855 X1.013 Y-10.148
N10860 X0.788 Y-10.169
N10865 X0.563 Y-10.184
N10870 X0.338 Y-10.192
N10875 X0.113 Y-10.199
N10880 X-0.113
N10885 X-0.338 Y-10.192
N10890 X-0.563 Y-10.184
N10895 X-0.788 Y-10.169
N10900 X-1.013 Y-10.148
N10905 X-1.238 Y-10.124
N10910 X-1.463 Y-10.093
N10915 X-1.689 Y-10.057
N10920 X-1.914 Y-10.019
N10925 X-1.919 Y-10.018
N10930 X-2.139 Y-9.971
N10935 X-2.303 Y-9.935
N10940 X-2.679 Y-9.841
N10945 X-3.056 Y-9.732 Z21.999
N10950 X-3.416 Y-9.61 Z21.997
N10955 X-3.781 Y-9.475 Z21.994
N10960 X-4.139 Y-9.323 Z21.991
N10965 X-4.484 Y-9.165 Z21.987
N10970 X-4.836 Y-8.986 Z21.983
N10975 X-5.004 Y-8.894 Z21.98
N10980 X-5.17 Y-8.798 Z21.977
N10985 X-5.337 Y-8.7 Z21.975
N10990 X-5.502 Y-8.599 Z21.972
N10995 X-5.664 Y-8.492 Z21.969
N11000 X-5.824 Y-8.384 Z21.965
N11005 X-5.983 Y-8.275 Z21.962
N11010 X-6.139 Y-8.16 Z21.958
N11015 X-6.294 Y-8.041 Z21.955
N11020 X-6.449 Y-7.921 Z21.951
N11025 X-6.598 Y-7.799 Z21.947
N11030 X-6.743 Y-7.673 Z21.943
N11035 X-6.89 Y-7.545 Z21.938
N11040 X-7.033 Y-7.414 Z21.934
N11045 X-7.173 Y-7.279 Z21.929
N11050 X-7.312 Y-7.142 Z21.925
N11055 X-7.446 Y-7.006 Z21.92
N11060 X-7.576 Y-6.866 Z21.915
N11065 X-7.641 Y-6.793 Z21.913
N11070 X-7.706 Y-6.72 Z21.91
N11075 X-7.772 Y-6.647 Z21.908
N11080 X-7.836 Y-6.574 Z21.905
N11085 X-7.899 Y-6.5 Z21.902
N11090 X-7.96 Y-6.425 Z21.9
N11095 X-8.02 Y-6.349 Z21.897
N11100 X-8.081 Y-6.273 Z21.894
N11105 X-8.14 Y-6.197 Z21.892
N11110 X-8.2 Y-6.121 Z21.889
N11115 X-8.258 Y-6.045 Z21.886
N11120 X-8.315 Y-5.967 Z21.883
N11125 X-8.373 Y-5.887 Z21.881
N11130 X-8.429 Y-5.806 Z21.878
N11135 X-8.485 Y-5.725 Z21.875
N11140 X-8.541 Y-5.644 Z21.872
N11145 X-8.594 Y-5.565 Z21.869
N11150 X-8.647 Y-5.485 Z21.866
N11155 X-8.699 Y-5.404 Z21.863
N11160 X-8.749 Y-5.322 Z21.86
N11165 X-8.799 Y-5.238 Z21.857
N11170 X-8.85 Y-5.154 Z21.854
N11175 X-8.901 Y-5.07 Z21.851
N11180 X-8.951 Y-4.985 Z21.848
N11185 X-8.998 Y-4.901 Z21.844
N11190 X-9.045 Y-4.816 Z21.841
N11195 X-9.09 Y-4.731 Z21.838
N11200 X-9.134 Y-4.645 Z21.835
N11205 X-9.18 Y-4.558 Z21.832
N11210 X-9.224 Y-4.471 Z21.828
N11215 X-9.268 Y-4.383 Z21.825
N11220 X-9.31 Y-4.294 Z21.822
N11225 X-9.351 Y-4.206 Z21.818
N11230 X-9.39 Y-4.118 Z21.815
N11235 X-9.43 Y-4.029 Z21.812
N11240 X-9.469 Y-3.94 Z21.808
N11245 X-9.507 Y-3.852 Z21.805
N11250 X-9.544 Y-3.763 Z21.802
N11255 X-9.58 Y-3.674 Z21.798
N11260 X-9.614 Y-3.584 Z21.795
N11265 X-9.648 Y-3.491 Z21.791
N11270 X-9.683 Y-3.399 Z21.788
N11275 X-9.717 Y-3.306 Z21.785
N11280 X-9.75 Y-3.213 Z21.781
N11285 X-9.78 Y-3.121 Z21.778
N11290 X-9.81 Y-3.029 Z21.774
N11295 X-9.838 Y-2.937 Z21.771
N11300 X-9.866 Y-2.844 Z21.768
N11305 X-9.894 Y-2.752 Z21.764
N11310 X-9.921 Y-2.659 Z21.761
N11315 X-9.947 Y-2.566 Z21.757
N11320 X-9.971 Y-2.473 Z21.754
N11325 X-9.994 Y-2.378 Z21.751
N11330 X-10.039 Y-2.187 Z21.744
N11335 X-10.061 Y-2.092 Z21.74
N11340 X-10.083 Y-1.996 Z21.737
N11345 X-10.102 Y-1.901 Z21.734
N11350 X-10.121 Y-1.805 Z21.73
N11355 X-10.138 Y-1.708 Z21.727
N11360 X-10.17 Y-1.516 Z21.72
N11365 X-10.186 Y-1.419 Z21.717
N11370 X-10.2 Y-1.323 Z21.713
N11375 X-10.214 Y-1.226 Z21.71
N11380 X-10.225 Y-1.129 Z21.706
N11385 X-10.235 Y-1.032 Z21.703
N11390 X-10.245 Y-0.935 Z21.699
N11395 X-10.255 Y-0.839 Z21.696
N11400 X-10.265 Y-0.743 Z21.693
N11405 X-10.272 Y-0.647 Z21.689
N11410 X-10.279 Y-0.55 Z21.686
N11415 X-10.284 Y-0.451 Z21.683
N11420 X-10.292 Y-0.253 Z21.676
N11425 X-10.296 Y-0.154 Z21.672
N11430 X-10.299 Y-0.057 Z21.669
N11435 X-10.3 Y0.04 Z21.665
N11440 X-10.299 Y0.137 Z21.662
N11445 X-10.298 Y0.233 Z21.659
N11450 X-10.294 Y0.429 Z21.652
N11455 X-10.292 Y0.527 Z21.648
N11460 X-10.287 Y0.624 Z21.645
N11465 X-10.282 Y0.722 Z21.642
N11470 X-10.275 Y0.82 Z21.638
N11475 X-10.258 Y1.015 Z21.631
N11480 X-10.25 Y1.113 Z21.628
N11485 X-10.241 Y1.21 Z21.624
N11490 X-10.23 Y1.308 Z21.621
N11495 X-10.218 Y1.405 Z21.618
N11500 X-10.204 Y1.502 Z21.614
N11505 X-10.176 Y1.696 Z21.607
N11510 X-10.161 Y1.793 Z21.604
N11515 X-10.145 Y1.889 Z21.601
N11520 X-10.128 Y1.984 Z21.597
N11525 X-10.109 Y2.08 Z21.594
N11530 X-10.089 Y2.175 Z21.59
N11535 X-10.048 Y2.366 Z21.584
N11540 X-10.028 Y2.461 Z21.58
N11545 X-10.005 Y2.556 Z21.577
N11550 X-9.981 Y2.652 Z21.573
N11555 X-9.956 Y2.747 Z21.57
N11560 X-9.903 Y2.938 Z21.563
N11565 X-9.876 Y3.031 Z21.559
N11570 X-9.849 Y3.125 Z21.556
N11575 X-9.82 Y3.218 Z21.553
N11580 X-9.79 Y3.31 Z21.549
N11585 X-9.758 Y3.404 Z21.546
N11590 X-9.693 Y3.59 Z21.539
N11595 X-9.66 Y3.683 Z21.535
N11600 X-9.626 Y3.775 Z21.532
N11605 X-9.591 Y3.866 Z21.529
N11610 X-9.555 Y3.957 Z21.525
N11615 X-9.479 Y4.137 Z21.518
N11620 X-9.441 Y4.227 Z21.515
N11625 X-9.402 Y4.317 Z21.512
N11630 X-9.362 Y4.407 Z21.508
N11635 X-9.32 Y4.496 Z21.505
N11640 X-9.277 Y4.585 Z21.501
N11645 X-9.233 Y4.673 Z21.498
N11650 X-9.19 Y4.762 Z21.494
N11655 X-9.146 Y4.849 Z21.491
N11660 X-9.101 Y4.936 Z21.488
N11665 X-9.055 Y5.023 Z21.484
N11670 X-9.007 Y5.108 Z21.481
N11675 X-8.958 Y5.194 Z21.477
N11680 X-8.909 Y5.279 Z21.474
N11685 X-8.86 Y5.364 Z21.47
N11690 X-8.81 Y5.449 Z21.467
N11695 X-8.76 Y5.533 Z21.464
N11700 X-8.707 Y5.616 Z21.46
N11705 X-8.654 Y5.698 Z21.457
N11710 X-8.6 Y5.78 Z21.453
N11715 X-8.546 Y5.862 Z21.45
N11720 X-8.491 Y5.945 Z21.446
N11725 X-8.435 Y6.027 Z21.443
N11730 X-8.378 Y6.108 Z21.439
N11735 X-8.32 Y6.187 Z21.436
N11740 X-8.261 Y6.265 Z21.433
N11745 X-8.202 Y6.343 Z21.429
N11750 X-8.143 Y6.421 Z21.426
N11755 X-8.084 Y6.499 Z21.422
N11760 X-8.023 Y6.577 Z21.419
N11765 X-7.961 Y6.653 Z21.415
N11770 X-7.899 Y6.728 Z21.412
N11775 X-7.835 Y6.802 Z21.409
N11780 X-7.706 Y6.951 Z21.402
N11785 X-7.641 Y7.025 Z21.398
N11790 X-7.576 Y7.098 Z21.395
N11795 X-7.508 Y7.17 Z21.391
N11800 X-7.44 Y7.242 Z21.388
N11805 X-7.371 Y7.312 Z21.385
N11810 X-7.233 Y7.453 Z21.378
N11815 X-7.163 Y7.523 Z21.374
N11820 X-7.091 Y7.591 Z21.371
N11825 X-7.02 Y7.659 Z21.367
N11830 X-6.947 Y7.725 Z21.364
N11835 X-6.8 Y7.857 Z21.357
N11840 X-6.727 Y7.923 Z21.354
N11845 X-6.653 Y7.987 Z21.35
N11850 X-6.577 Y8.05 Z21.347
N11855 X-6.501 Y8.113 Z21.343
N11860 X-6.424 Y8.174 Z21.34
N11865 X-6.268 Y8.297 Z21.333
N11870 X-6.19 Y8.358 Z21.329
N11875 X-6.112 Y8.417 Z21.326
N11880 X-6.032 Y8.475 Z21.323
N11885 X-5.952 Y8.532 Z21.319
N11890 X-5.871 Y8.588 Z21.316
N11895 X-5.79 Y8.644 Z21.312
N11900 X-5.709 Y8.701 Z21.309
N11905 X-5.627 Y8.756 Z21.305
N11910 X-5.544 Y8.81 Z21.302
N11915 X-5.46 Y8.863 Z21.298
N11920 X-5.376 Y8.914 Z21.295
N11925 X-5.207 Y9.016 Z21.288
N11930 X-5.123 Y9.067 Z21.285
N11935 X-5.037 Y9.116 Z21.281
N11940 X-4.951 Y9.164 Z21.278
N11945 X-4.864 Y9.211 Z21.274
N11950 X-4.777 Y9.257 Z21.271
N11955 X-4.602 Y9.348 Z21.264
N11960 X-4.514 Y9.393 Z21.261
N11965 X-4.425 Y9.436 Z21.257
N11970 X-4.336 Y9.479 Z21.254
N11975 X-4.245 Y9.52 Z21.25
N11980 X-4.155 Y9.56 Z21.247
N11985 X-4.065 Y9.6 Z21.243
N11990 X-3.974 Y9.64 Z21.24
N11995 X-3.883 Y9.679 Z21.236
N12000 X-3.791 Y9.716 Z21.233
N12005 X-3.699 Y9.752 Z21.229
N12010 X-3.607 Y9.787 Z21.226
N12015 X-3.514 Y9.821 Z21.223
N12020 X-3.422 Y9.856 Z21.219
N12025 X-3.329 Y9.89 Z21.216
N12030 X-3.235 Y9.922 Z21.212
N12035 X-3.141 Y9.953 Z21.209
N12040 X-3.047 Y9.982 Z21.205
N12045 X-2.952 Y10.011 Z21.202
N12050 X-2.857 Y10.04 Z21.198
N12055 X-2.762 Y10.068 Z21.195
N12060 X-2.667 Y10.096 Z21.191
N12065 X-2.571 Y10.122 Z21.188
N12070 X-2.475 Y10.146 Z21.185
N12075 X-2.379 Y10.17 Z21.181
N12080 X-2.283 Y10.192 Z21.178
N12085 X-2.186 Y10.215 Z21.175
N12090 X-2.09 Y10.237 Z21.171
N12095 X-1.993 Y10.257 Z21.168
N12100 X-1.896 Y10.277 Z21.165
N12105 X-1.799 Y10.294 Z21.161
N12110 X-1.7 Y10.311 Z21.158
N12115 X-1.602 Y10.328 Z21.155
N12120 X-1.504 Y10.344 Z21.152
N12125 X-1.406 Y10.36 Z21.149
N12130 X-1.308 Y10.374 Z21.145
N12135 X-1.21 Y10.387 Z21.142
N12140 X-1.112 Y10.398 Z21.139
N12145 X-1.013 Y10.408 Z21.136
N12150 X-0.915 Y10.418 Z21.133
N12155 X-0.816 Y10.428 Z21.13
N12160 X-0.717 Y10.437 Z21.127
N12165 X-0.618 Y10.444 Z21.124
N12170 X-0.519 Y10.45 Z21.121
N12175 X-0.42 Y10.454 Z21.118
N12180 X-0.321 Y10.458 Z21.115
N12185 X-0.221 Y10.462 Z21.113
N12190 X-0.122 Y10.466 Z21.11
N12195 X-0.023 Y10.467 Z21.107
N12200 X0.076 Y10.468 Z21.104
N12205 X0.176 Y10.467 Z21.102
N12210 X0.275 Y10.465 Z21.099
N12215 X0.374 Y10.462 Z21.096
N12220 X0.474 Y10.46 Z21.093
N12225 X0.573 Y10.457 Z21.091
N12230 X0.672 Y10.452 Z21.088
N12235 X0.771 Y10.445 Z21.086
N12240 X0.87 Y10.437 Z21.083
N12245 X1.068 Y10.42 Z21.078
N12250 X1.265 Y10.401 Z21.074
N12255 X1.463 Y10.376 Z21.069
N12260 X1.659 Y10.346 Z21.064
N12265 X1.856 Y10.316 Z21.06
N12270 X2.051 Y10.28 Z21.056
N12275 X2.246 Y10.239 Z21.051
N12280 X2.44 Y10.197 Z21.047
N12285 X2.634 Y10.151 Z21.044
N12290 X2.825 Y10.098 Z21.04
N12295 X3.017 Y10.044 Z21.036
N12300 X3.208 Y9.987 Z21.033
N12305 X3.397 Y9.925 Z21.03
N12310 X3.584 Y9.859 Z21.027
N12315 X3.771 Y9.791 Z21.024
N12320 X3.957 Y9.719 Z21.021
N12325 X4.14 Y9.641 Z21.018
N12330 X4.323 Y9.563 Z21.016
N12335 X4.683 Y9.392 Z21.011
N12340 X5.037 Y9.21 Z21.008
N12345 X5.382 Y9.012 Z21.005
N12350 X5.721 Y8.803 Z21.002
N12355 X6.051 Y8.58 Z21.001
N12360 X6.372 Y8.344 Z21.
N12365 X6.521 Y8.228
N12370 X6.535 Y8.217
N12375 X6.642 Y8.132
N12380 X6.809 Y7.992
N12385 X6.867 Y7.941
N12390 X7.065 Y7.767
N12395 X7.092 Y7.742
N12400 X7.305 Y7.541
N12405 X7.317 Y7.529
N12410 X7.53 Y7.316
N12415 X7.542 Y7.303
N12420 X7.742 Y7.091
N12425 X7.767 Y7.064
N12430 X7.942 Y6.866
N12435 X7.993 Y6.808
N12440 X8.133 Y6.641
N12445 X8.218 Y6.534
N12450 X8.309 Y6.416
N12455 X8.443 Y6.242
N12460 X8.481 Y6.191
N12465 X8.639 Y5.966
N12470 X8.668 Y5.922
N12475 X8.791 Y5.74
N12480 X8.893 Y5.582
N12485 X8.934 Y5.515
N12490 X9.067 Y5.29
N12495 X9.118 Y5.204
N12500 X9.197 Y5.065
N12505 X9.316 Y4.84
N12510 X9.343 Y4.786
N12515 X9.43 Y4.615
N12520 X9.538 Y4.39
N12525 X9.569 Y4.32
N12530 X9.636 Y4.165
N12535 X9.733 Y3.94
N12540 X9.794 Y3.785
N12545 X9.82 Y3.714
N12550 X9.901 Y3.489
N12555 X9.98 Y3.264
N12560 X10.019 Y3.139
N12565 X10.049 Y3.039
N12570 X10.115 Y2.814
N12575 X10.176 Y2.589
N12580 X10.228 Y2.364
N12585 X10.244 Y2.294
N12590 X10.279 Y2.139
N12595 X10.324 Y1.913
N12600 X10.361 Y1.688
N12605 X10.397 Y1.463
N12610 X10.426 Y1.238
N12615 X10.449 Y1.013
N12620 X10.469 Y0.797
N12625 X10.47 Y0.788
N12630 X10.484 Y0.563
N12635 X10.493 Y0.338
N12640 X10.499 Y0.113
N12645 Y-0.113
N12650 X10.493 Y-0.338
N12655 X10.484 Y-0.563
N12660 X10.47 Y-0.788
N12665 X10.469 Y-0.797
N12670 X10.449 Y-1.013
N12675 X10.426 Y-1.238
N12680 X10.397 Y-1.463
N12685 X10.361 Y-1.688
N12690 X10.324 Y-1.913
N12695 X10.279 Y-2.139
N12700 X10.244 Y-2.294
N12705 X10.228 Y-2.364
N12710 X10.176 Y-2.589
N12715 X10.115 Y-2.814
N12720 X10.049 Y-3.039
N12725 X10.019 Y-3.139
N12730 X9.98 Y-3.264
N12735 X9.901 Y-3.489
N12740 X9.82 Y-3.714
N12745 X9.794 Y-3.785
N12750 X9.733 Y-3.94
N12755 X9.636 Y-4.165
N12760 X9.569 Y-4.32
N12765 X9.538 Y-4.39
N12770 X9.43 Y-4.615
N12775 X9.343 Y-4.786
N12780 X9.316 Y-4.84
N12785 X9.197 Y-5.065
N12790 X9.118 Y-5.204
N12795 X9.067 Y-5.29
N12800 X8.934 Y-5.515
N12805 X8.893 Y-5.582
N12810 X8.791 Y-5.74
N12815 X8.668 Y-5.922
N12820 X8.639 Y-5.966
N12825 X8.481 Y-6.191
N12830 X8.443 Y-6.242
N12835 X8.309 Y-6.416
N12840 X8.218 Y-6.534
N12845 X8.133 Y-6.641
N12850 X7.993 Y-6.808
N12855 X7.942 Y-6.866
N12860 X7.767 Y-7.064
N12865 X7.742 Y-7.091
N12870 X7.542 Y-7.303
N12875 X7.53 Y-7.316
N12880 X7.317 Y-7.529
N12885 X7.305 Y-7.541
N12890 X7.092 Y-7.742
N12895 X7.065 Y-7.767
N12900 X6.867 Y-7.941
N12905 X6.809 Y-7.992
N12910 X6.642 Y-8.132
N12915 X6.535 Y-8.217
N12920 X6.417 Y-8.309
N12925 X6.243 Y-8.442
N12930 X6.191 Y-8.48
N12935 X5.966 Y-8.638
N12940 X5.923 Y-8.667
N12945 X5.741 Y-8.791
N12950 X5.583 Y-8.892
N12955 X5.516 Y-8.934
N12960 X5.291 Y-9.067
N12965 X5.206 Y-9.117
N12970 X5.066 Y-9.197
N12975 X4.841 Y-9.316
N12980 X4.615 Y-9.43
N12985 X4.39 Y-9.538
N12990 X4.324 Y-9.567
N12995 X4.165 Y-9.636
N13000 X3.94 Y-9.732
N13005 X3.787 Y-9.793
N13010 X3.715 Y-9.82
N13015 X3.49 Y-9.901
N13020 X3.265 Y-9.979
N13025 X3.145 Y-10.018
N13030 X3.039 Y-10.049
N13035 X2.814 Y-10.114
N13040 X2.589 Y-10.176
N13045 X2.364 Y-10.229
N13050 X2.301 Y-10.243
N13055 X2.139 Y-10.279
N13060 X1.914 Y-10.324
N13065 X1.689 Y-10.361
N13070 X1.463 Y-10.397
N13075 X1.238 Y-10.426
N13080 X1.013 Y-10.449
N13085 X0.807 Y-10.468
N13090 X0.788 Y-10.469
N13095 X0.563 Y-10.484
N13100 X0.338 Y-10.492
N13105 X0.113 Y-10.499
N13110 X-0.113
N13115 X-0.338 Y-10.492
N13120 X-0.563 Y-10.484
N13125 X-0.788 Y-10.469
N13130 X-0.807 Y-10.468
N13135 X-1.013 Y-10.449
N13140 X-1.238 Y-10.426
N13145 X-1.463 Y-10.397
N13150 X-1.689 Y-10.361
N13155 X-1.914 Y-10.324
N13160 X-2.139 Y-10.279
N13165 X-2.301 Y-10.243
N13170 X-2.364 Y-10.229
N13175 X-2.589 Y-10.176
N13180 X-2.814 Y-10.114
N13185 X-3.039 Y-10.049
N13190 X-3.145 Y-10.018
N13195 X-3.265 Y-9.979
N13200 X-3.49 Y-9.901
N13205 X-3.715 Y-9.82
N13210 X-3.787 Y-9.793
N13215 X-3.94 Y-9.732
N13220 X-4.165 Y-9.636
N13225 X-4.324 Y-9.567
N13230 X-4.39 Y-9.538
N13235 X-4.615 Y-9.43
N13240 X-4.841 Y-9.316
N13245 X-5.066 Y-9.197
N13250 X-5.206 Y-9.117
N13255 X-5.291 Y-9.067
N13260 X-5.516 Y-8.934
N13265 X-5.583 Y-8.892
N13270 X-5.741 Y-8.791
N13275 X-5.923 Y-8.667
N13280 X-5.966 Y-8.638
N13285 X-6.191 Y-8.48
N13290 X-6.243 Y-8.442
N13295 X-6.417 Y-8.309
N13300 X-6.535 Y-8.217
N13305 X-6.642 Y-8.132
N13310 X-6.809 Y-7.992
N13315 X-6.867 Y-7.941
N13320 X-7.065 Y-7.767
N13325 X-7.092 Y-7.742
N13330 X-7.305 Y-7.541
N13335 X-7.317 Y-7.529
N13340 X-7.53 Y-7.316
N13345 X-7.542 Y-7.303
N13350 X-7.742 Y-7.091
N13355 X-7.767 Y-7.064
N13360 X-7.942 Y-6.866
N13365 X-7.993 Y-6.808
N13370 X-8.133 Y-6.641
N13375 X-8.218 Y-6.534
N13380 X-8.309 Y-6.416
N13385 X-8.443 Y-6.242
N13390 X-8.481 Y-6.191
N13395 X-8.639 Y-5.966
N13400 X-8.668 Y-5.922
N13405 X-8.791 Y-5.74
N13410 X-8.893 Y-5.582
N13415 X-8.934 Y-5.515
N13420 X-9.067 Y-5.29
N13425 X-9.118 Y-5.204
N13430 X-9.197 Y-5.065
N13435 X-9.316 Y-4.84
N13440 X-9.343 Y-4.786
N13445 X-9.43 Y-4.615
N13450 X-9.538 Y-4.39
N13455 X-9.569 Y-4.32
N13460 X-9.636 Y-4.165
N13465 X-9.733 Y-3.94
N13470 X-9.794 Y-3.785
N13475 X-9.82 Y-3.714
N13480 X-9.901 Y-3.489
N13485 X-9.98 Y-3.264
N13490 X-10.019 Y-3.139
N13495 X-10.049 Y-3.039
N13500 X-10.115 Y-2.814
N13505 X-10.176 Y-2.589
N13510 X-10.228 Y-2.364
N13515 X-10.244 Y-2.294
N13520 X-10.279 Y-2.139
N13525 X-10.324 Y-1.913
N13530 X-10.361 Y-1.688
N13535 X-10.397 Y-1.463
N13540 X-10.426 Y-1.238
N13545 X-10.449 Y-1.013
N13550 X-10.469 Y-0.797
N13555 X-10.47 Y-0.788
N13560 X-10.484 Y-0.563
N13565 X-10.493 Y-0.338
N13570 X-10.499 Y-0.113
N13575 Y0.113
N13580 X-10.493 Y0.338
N13585 X-10.484 Y0.563
N13590 X-10.47 Y0.788
N13595 X-10.469 Y0.797
N13600 X-10.449 Y1.013
N13605 X-10.426 Y1.238
N13610 X-10.397 Y1.463
N13615 X-10.361 Y1.688
N13620 X-10.324 Y1.913
N13625 X-10.279 Y2.139
N13630 X-10.244 Y2.294
N13635 X-10.228 Y2.364
N13640 X-10.176 Y2.589
N13645 X-10.115 Y2.814
N13650 X-10.049 Y3.039
N13655 X-10.019 Y3.139
N13660 X-9.98 Y3.264
N13665 X-9.901 Y3.489
N13670 X-9.82 Y3.714
N13675 X-9.794 Y3.785
N13680 X-9.733 Y3.94
N13685 X-9.636 Y4.165
N13690 X-9.569 Y4.32
N13695 X-9.538 Y4.39
N13700 X-9.43 Y4.615
N13705 X-9.343 Y4.786
N13710 X-9.316 Y4.84
N13715 X-9.197 Y5.065
N13720 X-9.118 Y5.204
N13725 X-9.067 Y5.29
N13730 X-8.934 Y5.515
N13735 X-8.893 Y5.582
N13740 X-8.791 Y5.74
N13745 X-8.668 Y5.922
N13750 X-8.639 Y5.966
N13755 X-8.481 Y6.191
N13760 X-8.443 Y6.242
N13765 X-8.309 Y6.416
N13770 X-8.218 Y6.534
N13775 X-8.133 Y6.641
N13780 X-7.993 Y6.808
N13785 X-7.942 Y6.866
N13790 X-7.767 Y7.064
N13795 X-7.742 Y7.091
N13800 X-7.542 Y7.303
N13805 X-7.53 Y7.316
N13810 X-7.317 Y7.529
N13815 X-7.305 Y7.541
N13820 X-7.092 Y7.742
N13825 X-7.065 Y7.767
N13830 X-6.867 Y7.941
N13835 X-6.809 Y7.992
N13840 X-6.642 Y8.132
N13845 X-6.535 Y8.217
N13850 X-6.417 Y8.309
N13855 X-6.243 Y8.442
N13860 X-6.191 Y8.48
N13865 X-5.966 Y8.638
N13870 X-5.923 Y8.667
N13875 X-5.741 Y8.791
N13880 X-5.583 Y8.892
N13885 X-5.516 Y8.934
N13890 X-5.291 Y9.067
N13895 X-5.206 Y9.117
N13900 X-5.066 Y9.197
N13905 X-4.841 Y9.316
N13910 X-4.615 Y9.43
N13915 X-4.39 Y9.538
N13920 X-4.324 Y9.567
N13925 X-4.165 Y9.636
N13930 X-3.94 Y9.732
N13935 X-3.787 Y9.793
N13940 X-3.715 Y9.82
N13945 X-3.49 Y9.901
N13950 X-3.265 Y9.979
N13955 X-3.145 Y10.018
N13960 X-3.039 Y10.049
N13965 X-2.814 Y10.114
N13970 X-2.589 Y10.176
N13975 X-2.364 Y10.229
N13980 X-2.301 Y10.243
N13985 X-2.139 Y10.279
N13990 X-1.914 Y10.324
N13995 X-1.689 Y10.361
N14000 X-1.463 Y10.397
N14005 X-1.238 Y10.426
N14010 X-1.013 Y10.449
N14015 X-0.807 Y10.468
N14020 X-0.788 Y10.469
N14025 X-0.563 Y10.484
N14030 X-0.338 Y10.492
N14035 X-0.113 Y10.499
N14040 X0.113
N14045 X0.338 Y10.492
N14050 X0.563 Y10.484
N14055 X0.788 Y10.469
N14060 X0.807 Y10.468
N14065 X1.013 Y10.449
N14070 X1.238 Y10.426
N14075 X1.463 Y10.397
N14080 X1.689 Y10.361
N14085 X1.914 Y10.324
N14090 X2.139 Y10.279
N14095 X2.301 Y10.243
N14100 X2.364 Y10.229
N14105 X2.589 Y10.176
N14110 X2.814 Y10.114
N14115 X3.039 Y10.049
N14120 X3.145 Y10.018
N14125 X3.265 Y9.979
N14130 X3.49 Y9.901
N14135 X3.715 Y9.82
N14140 X3.787 Y9.793
N14145 X3.94 Y9.732
N14150 X4.165 Y9.636
N14155 X4.324 Y9.567
N14160 X4.39 Y9.538
N14165 X4.615 Y9.43
N14170 X4.841 Y9.316
N14175 X5.066 Y9.197
N14180 X5.206 Y9.117
N14185 X5.291 Y9.067
N14190 X5.516 Y8.934
N14195 X5.583 Y8.892
N14200 X5.741 Y8.791
N14205 X5.923 Y8.667
N14210 X5.966 Y8.638
N14215 X6.191 Y8.48
N14220 X6.243 Y8.442
N14225 X6.417 Y8.309
N14230 X6.521 Y8.228
N14235 X6.816 Y7.985
N14240 X7.111 Y7.725 Z20.999
N14245 X7.387 Y7.461 Z20.997
N14250 X7.661 Y7.183 Z20.994
N14255 X7.921 Y6.894 Z20.991
N14260 X8.17 Y6.602 Z20.987
N14265 X8.411 Y6.292 Z20.983
N14270 X8.525 Y6.139 Z20.98
N14275 X8.635 Y5.983 Z20.977
N14280 X8.746 Y5.821 Z20.975
N14285 X8.855 Y5.658 Z20.972
N14290 X8.957 Y5.495 Z20.969
N14295 X9.056 Y5.33 Z20.965
N14300 X9.155 Y5.163 Z20.962
N14305 X9.25 Y4.994 Z20.958
N14310 X9.34 Y4.823 Z20.955
N14315 X9.429 Y4.651 Z20.951
N14320 X9.515 Y4.477 Z20.947
N14325 X9.596 Y4.302 Z20.943
N14330 X9.675 Y4.123 Z20.938
N14335 X9.752 Y3.943 Z20.934
N14340 X9.824 Y3.765 Z20.93
N14345 X9.891 Y3.585 Z20.925
N14350 X9.958 Y3.402 Z20.92
N14355 X10.021 Y3.218 Z20.915
N14360 X10.051 Y3.125 Z20.913
N14365 X10.079 Y3.032 Z20.91
N14370 X10.107 Y2.939 Z20.908
N14375 X10.135 Y2.845 Z20.905
N14380 X10.162 Y2.754 Z20.902
N14385 X10.188 Y2.661 Z20.9
N14390 X10.213 Y2.569 Z20.897
N14395 X10.236 Y2.476 Z20.895
N14400 X10.258 Y2.379 Z20.892
N14405 X10.281 Y2.283 Z20.889
N14410 X10.303 Y2.186 Z20.886
N14415 X10.325 Y2.089 Z20.883
N14420 X10.345 Y1.995 Z20.88
N14425 X10.363 Y1.901 Z20.878
N14430 X10.381 Y1.807 Z20.875
N14435 X10.397 Y1.712 Z20.872
N14440 X10.413 Y1.616 Z20.869
N14445 X10.429 Y1.52 Z20.866
N14450 X10.444 Y1.424 Z20.863
N14455 X10.458 Y1.328 Z20.86
N14460 X10.47 Y1.232 Z20.857
N14465 X10.481 Y1.135 Z20.854
N14470 X10.491 Y1.038 Z20.851
N14475 X10.502 Y0.941 Z20.848
N14480 X10.512 Y0.844 Z20.844
N14485 X10.521 Y0.747 Z20.841
N14490 X10.528 Y0.649 Z20.838
N14495 X10.535 Y0.552 Z20.835
N14500 X10.539 Y0.455 Z20.832
N14505 X10.543 Y0.357 Z20.828
N14510 X10.547 Y0.26 Z20.825
N14515 X10.551 Y0.163 Z20.822
N14520 X10.554 Y0.067 Z20.818
N14525 X10.555 Y-0.03 Z20.815
N14530 Y-0.126 Z20.812
N14535 X10.554 Y-0.223 Z20.808
N14540 X10.552 Y-0.32 Z20.805
N14545 X10.55 Y-0.417 Z20.802
N14550 X10.547 Y-0.515 Z20.798
N14555 X10.543 Y-0.612 Z20.795
N14560 X10.538 Y-0.71 Z20.791
N14565 X10.532 Y-0.807 Z20.788
N14570 X10.524 Y-0.904 Z20.784
N14575 X10.516 Y-1.001 Z20.781
N14580 X10.508 Y-1.099 Z20.778
N14585 X10.499 Y-1.196 Z20.774
N14590 X10.489 Y-1.294 Z20.771
N14595 X10.477 Y-1.391 Z20.767
N14600 X10.465 Y-1.487 Z20.764
N14605 X10.451 Y-1.584 Z20.761
N14610 X10.437 Y-1.68 Z20.757
N14615 X10.422 Y-1.777 Z20.754
N14620 X10.407 Y-1.872 Z20.75
N14625 X10.391 Y-1.967 Z20.747
N14630 X10.374 Y-2.062 Z20.744
N14635 X10.354 Y-2.157 Z20.74
N14640 X10.334 Y-2.253 Z20.737
N14645 X10.293 Y-2.445 Z20.73
N14650 X10.272 Y-2.541 Z20.727
N14655 X10.249 Y-2.635 Z20.723
N14660 X10.225 Y-2.73 Z20.72
N14665 X10.2 Y-2.824 Z20.716
N14670 X10.174 Y-2.919 Z20.713
N14675 X10.148 Y-3.013 Z20.71
N14680 X10.121 Y-3.107 Z20.706
N14685 X10.093 Y-3.201 Z20.703
N14690 X10.065 Y-3.294 Z20.699
N14695 X10.034 Y-3.387 Z20.696
N14700 X10.003 Y-3.479 Z20.693
N14705 X9.971 Y-3.571 Z20.689
N14710 X9.939 Y-3.663 Z20.686
N14715 X9.907 Y-3.755 Z20.682
N14720 X9.873 Y-3.847 Z20.679
N14725 X9.838 Y-3.938 Z20.675
N14730 X9.802 Y-4.029 Z20.672
N14735 X9.764 Y-4.119 Z20.669
N14740 X9.688 Y-4.301 Z20.662
N14745 X9.649 Y-4.391 Z20.658
N14750 X9.61 Y-4.48 Z20.655
N14755 X9.569 Y-4.569 Z20.652
N14760 X9.527 Y-4.657 Z20.648
N14765 X9.484 Y-4.745 Z20.645
N14770 X9.397 Y-4.92 Z20.638
N14775 X9.353 Y-5.007 Z20.634
N14780 X9.308 Y-5.093 Z20.631
N14785 X9.262 Y-5.179 Z20.628
N14790 X9.214 Y-5.264 Z20.624
N14795 X9.116 Y-5.433 Z20.617
N14800 X9.067 Y-5.518 Z20.614
N14805 X9.018 Y-5.602 Z20.611
N14810 X8.967 Y-5.686 Z20.607
N14815 X8.915 Y-5.768 Z20.604
N14820 X8.862 Y-5.851 Z20.6
N14825 X8.808 Y-5.932 Z20.597
N14830 X8.754 Y-6.014 Z20.594
N14835 X8.699 Y-6.095 Z20.59
N14840 X8.644 Y-6.176 Z20.587
N14845 X8.588 Y-6.256 Z20.583
N14850 X8.53 Y-6.335 Z20.58
N14855 X8.471 Y-6.414 Z20.576
N14860 X8.412 Y-6.492 Z20.573
N14865 X8.292 Y-6.65 Z20.566
N14870 X8.231 Y-6.728 Z20.563
N14875 X8.17 Y-6.803 Z20.559
N14880 X8.108 Y-6.879 Z20.556
N14885 X8.045 Y-6.953 Z20.552
N14890 X7.917 Y-7.101 Z20.546
N14895 X7.852 Y-7.175 Z20.542
N14900 X7.787 Y-7.248 Z20.539
N14905 X7.72 Y-7.321 Z20.535
N14910 X7.652 Y-7.392 Z20.532
N14915 X7.584 Y-7.463 Z20.528
N14920 X7.446 Y-7.603 Z20.521
N14925 X7.377 Y-7.673 Z20.518
N14930 X7.307 Y-7.741 Z20.515
N14935 X7.237 Y-7.808 Z20.511
N14940 X7.166 Y-7.875 Z20.508
N14945 X7.019 Y-8.006 Z20.501
N14950 X6.946 Y-8.072 Z20.498
N14955 X6.872 Y-8.138 Z20.494
N14960 X6.798 Y-8.202 Z20.491
N14965 X6.723 Y-8.264 Z20.487
N14970 X6.647 Y-8.326 Z20.484
N14975 X6.57 Y-8.387 Z20.48
N14980 X6.493 Y-8.448 Z20.477
N14985 X6.416 Y-8.509 Z20.474
N14990 X6.338 Y-8.569 Z20.47
N14995 X6.26 Y-8.628 Z20.467
N15000 X6.18 Y-8.686 Z20.463
N15005 X6.099 Y-8.743 Z20.46
N15010 X5.937 Y-8.856 Z20.453
N15015 X5.857 Y-8.912 Z20.45
N15020 X5.776 Y-8.967 Z20.446
N15025 X5.694 Y-9.02 Z20.443
N15030 X5.611 Y-9.072 Z20.439
N15035 X5.527 Y-9.124 Z20.436
N15040 X5.358 Y-9.227 Z20.429
N15045 X5.273 Y-9.278 Z20.425
N15050 X5.189 Y-9.327 Z20.422
N15055 X5.103 Y-9.375 Z20.419
N15060 X5.017 Y-9.422 Z20.415
N15065 X4.931 Y-9.468 Z20.412
N15070 X4.843 Y-9.514 Z20.408
N15075 X4.755 Y-9.56 Z20.405
N15080 X4.667 Y-9.605 Z20.401
N15085 X4.578 Y-9.649 Z20.398
N15090 X4.49 Y-9.692 Z20.394
N15095 X4.401 Y-9.733 Z20.391
N15100 X4.311 Y-9.773 Z20.388
N15105 X4.222 Y-9.813 Z20.384
N15110 X4.132 Y-9.853 Z20.381
N15115 X4.042 Y-9.892 Z20.377
N15120 X3.952 Y-9.93 Z20.374
N15125 X3.861 Y-9.967 Z20.371
N15130 X3.768 Y-10.003 Z20.367
N15135 X3.675 Y-10.037 Z20.364
N15140 X3.489 Y-10.107 Z20.357
N15145 X3.397 Y-10.14 Z20.353
N15150 X3.304 Y-10.171 Z20.35
N15155 X3.211 Y-10.203 Z20.346
N15160 X3.117 Y-10.232 Z20.343
N15165 X2.928 Y-10.289 Z20.336
N15170 X2.833 Y-10.317 Z20.333
N15175 X2.738 Y-10.345 Z20.329
N15180 X2.643 Y-10.371 Z20.326
N15185 X2.547 Y-10.395 Z20.322
N15190 X2.451 Y-10.419 Z20.319
N15195 X2.355 Y-10.441 Z20.315
N15200 X2.259 Y-10.464 Z20.312
N15205 X2.163 Y-10.486 Z20.308
N15210 X2.066 Y-10.507 Z20.305
N15215 X1.969 Y-10.527 Z20.302
N15220 X1.872 Y-10.545 Z20.298
N15225 X1.775 Y-10.562 Z20.295
N15230 X1.677 Y-10.578 Z20.291
N15235 X1.58 Y-10.595 Z20.288
N15240 X1.483 Y-10.611 Z20.284
N15245 X1.386 Y-10.626 Z20.281
N15250 X1.288 Y-10.638 Z20.277
N15255 X1.191 Y-10.651 Z20.274
N15260 X1.092 Y-10.661 Z20.271
N15265 X0.993 Y-10.672 Z20.267
N15270 X0.894 Y-10.682 Z20.264
N15275 X0.795 Y-10.691 Z20.26
N15280 X0.697 Y-10.7 Z20.257
N15285 X0.599 Y-10.707 Z20.253
N15290 X0.5 Y-10.712 Z20.25
N15295 X0.402 Y-10.717 Z20.246
N15300 X0.303 Y-10.721 Z20.243
N15305 X0.204 Y-10.725 Z20.239
N15310 X0.105 Y-10.728 Z20.236
N15315 X0.006 Y-10.73 Z20.233
N15320 X-0.093 Y-10.731 Z20.229
N15325 X-0.192 Y-10.729 Z20.226
N15330 X-0.29 Y-10.727 Z20.222
N15335 X-0.389 Y-10.725 Z20.219
N15340 X-0.488 Y-10.723 Z20.215
N15345 X-0.587 Y-10.72 Z20.212
N15350 X-0.686 Y-10.715 Z20.208
N15355 X-0.785 Y-10.709 Z20.205
N15360 X-0.884 Y-10.702 Z20.201
N15365 X-0.983 Y-10.694 Z20.198
N15370 X-1.082 Y-10.685 Z20.195
N15375 X-1.18 Y-10.677 Z20.191
N15380 X-1.279 Y-10.667 Z20.188
N15385 X-1.377 Y-10.656 Z20.184
N15390 X-1.475 Y-10.644 Z20.181
N15395 X-1.573 Y-10.629 Z20.178
N15400 X-1.671 Y-10.615 Z20.174
N15405 X-1.769 Y-10.6 Z20.171
N15410 X-1.867 Y-10.585 Z20.168
N15415 X-1.965 Y-10.57 Z20.164
N15420 X-2.062 Y-10.551 Z20.161
N15425 X-2.16 Y-10.533 Z20.158
N15430 X-2.257 Y-10.513 Z20.155
N15435 X-2.354 Y-10.492 Z20.151
N15440 X-2.451 Y-10.471 Z20.148
N15445 X-2.548 Y-10.45 Z20.145
N15450 X-2.644 Y-10.427 Z20.142
N15455 X-2.74 Y-10.403 Z20.139
N15460 X-2.836 Y-10.377 Z20.136
N15465 X-2.932 Y-10.351 Z20.133
N15470 X-3.028 Y-10.324 Z20.13
N15475 X-3.123 Y-10.297 Z20.127
N15480 X-3.218 Y-10.27 Z20.124
N15485 X-3.313 Y-10.241 Z20.121
N15490 X-3.407 Y-10.211 Z20.118
N15495 X-3.501 Y-10.179 Z20.115
N15500 X-3.595 Y-10.146 Z20.112
N15505 X-3.689 Y-10.113 Z20.109
N15510 X-3.783 Y-10.08 Z20.107
N15515 X-3.876 Y-10.046 Z20.104
N15520 X-3.969 Y-10.011 Z20.101
N15525 X-4.061 Y-9.975 Z20.099
N15530 X-4.153 Y-9.937 Z20.096
N15535 X-4.245 Y-9.898 Z20.093
N15540 X-4.336 Y-9.86 Z20.091
N15545 X-4.427 Y-9.821 Z20.088
N15550 X-4.518 Y-9.781 Z20.085
N15555 X-4.608 Y-9.739 Z20.083
N15560 X-4.788 Y-9.653 Z20.078
N15565 X-4.965 Y-9.564 Z20.073
N15570 X-5.142 Y-9.474 Z20.069
N15575 X-5.316 Y-9.378 Z20.064
N15580 X-5.489 Y-9.278 Z20.06
N15585 X-5.66 Y-9.178 Z20.055
N15590 X-5.829 Y-9.073 Z20.051
N15595 X-5.995 Y-8.964 Z20.047
N15600 X-6.16 Y-8.853 Z20.043
N15605 X-6.324 Y-8.74 Z20.04
N15610 X-6.485 Y-8.622 Z20.036
N15615 X-6.642 Y-8.501 Z20.033
N15620 X-6.799 Y-8.379 Z20.029
N15625 X-6.953 Y-8.253 Z20.026
N15630 X-7.104 Y-8.123 Z20.023
N15635 X-7.254 Y-7.992 Z20.021
N15640 X-7.401 Y-7.857 Z20.018
N15645 X-7.544 Y-7.72 Z20.016
N15650 X-7.826 Y-7.438 Z20.011
N15655 X-8.094 Y-7.144 Z20.008
N15660 X-8.354 Y-6.842 Z20.005
N15665 X-8.6 Y-6.529 Z20.002
N15670 X-8.836 Y-6.208 Z20.001
N15675 X-9.059 Y-5.878 Z20.
N15680 X-9.155 Y-5.729
N15685 X-9.283 Y-5.515
N15690 X-9.343 Y-5.413
N15695 X-9.415 Y-5.29
N15700 X-9.538 Y-5.065
N15705 X-9.569 Y-5.005
N15710 X-9.653 Y-4.84
N15715 X-9.764 Y-4.615
N15720 X-9.794 Y-4.552
N15725 X-9.866 Y-4.39
N15730 X-9.963 Y-4.165
N15735 X-10.019 Y-4.032
N15740 X-10.055 Y-3.94
N15745 X-10.139 Y-3.714
N15750 X-10.219 Y-3.489
N15755 X-10.244 Y-3.42
N15760 X-10.294 Y-3.264
N15765 X-10.362 Y-3.039
N15770 X-10.426 Y-2.814
N15775 X-10.469 Y-2.652
N15780 X-10.485 Y-2.589
N15785 X-10.536 Y-2.364
N15790 X-10.586 Y-2.139
N15795 X-10.628 Y-1.913
N15800 X-10.665 Y-1.688
N15805 X-10.694 Y-1.501
N15810 X-10.7 Y-1.463
N15815 X-10.728 Y-1.238
N15820 X-10.75 Y-1.013
N15825 X-10.771 Y-0.788
N15830 X-10.785 Y-0.563
N15835 X-10.793 Y-0.338
N15840 X-10.799 Y-0.113
N15845 Y0.113
N15850 X-10.793 Y0.338
N15855 X-10.785 Y0.563
N15860 X-10.771 Y0.788
N15865 X-10.75 Y1.013
N15870 X-10.728 Y1.238
N15875 X-10.7 Y1.463
N15880 X-10.694 Y1.501
N15885 X-10.665 Y1.688
N15890 X-10.628 Y1.913
N15895 X-10.586 Y2.139
N15900 X-10.536 Y2.364
N15905 X-10.485 Y2.589
N15910 X-10.469 Y2.652
N15915 X-10.426 Y2.814
N15920 X-10.362 Y3.039
N15925 X-10.294 Y3.264
N15930 X-10.244 Y3.42
N15935 X-10.219 Y3.489
N15940 X-10.139 Y3.714
N15945 X-10.055 Y3.94
N15950 X-10.019 Y4.032
N15955 X-9.963 Y4.165
N15960 X-9.866 Y4.39
N15965 X-9.794 Y4.552
N15970 X-9.764 Y4.615
N15975 X-9.653 Y4.84
N15980 X-9.569 Y5.005
N15985 X-9.538 Y5.065
N15990 X-9.415 Y5.29
N15995 X-9.343 Y5.413
N16000 X-9.283 Y5.515
N16005 X-9.148 Y5.74
N16010 X-9.118 Y5.787
N16015 X-9.001 Y5.966
N16020 X-8.893 Y6.125
N16025 X-8.848 Y6.191
N16030 X-8.687 Y6.416
N16035 X-8.668 Y6.442
N16040 X-8.514 Y6.641
N16045 X-8.443 Y6.733
N16050 X-8.336 Y6.866
N16055 X-8.218 Y7.007
N16060 X-8.144 Y7.091
N16065 X-7.993 Y7.262
N16070 X-7.943 Y7.316
N16075 X-7.767 Y7.502
N16080 X-7.729 Y7.541
N16085 X-7.542 Y7.728
N16090 X-7.504 Y7.767
N16095 X-7.317 Y7.943
N16100 X-7.263 Y7.992
N16105 X-7.092 Y8.143
N16110 X-7.007 Y8.217
N16115 X-6.867 Y8.336
N16120 X-6.734 Y8.442
N16125 X-6.642 Y8.514
N16130 X-6.443 Y8.667
N16135 X-6.417 Y8.686
N16140 X-6.191 Y8.847
N16145 X-6.126 Y8.892
N16150 X-5.966 Y9.
N16155 X-5.789 Y9.117
N16160 X-5.741 Y9.147
N16165 X-5.516 Y9.283
N16170 X-5.416 Y9.342
N16175 X-5.291 Y9.414
N16180 X-5.066 Y9.537
N16185 X-5.007 Y9.567
N16190 X-4.841 Y9.652
N16195 X-4.615 Y9.764
N16200 X-4.553 Y9.793
N16205 X-4.39 Y9.866
N16210 X-4.165 Y9.963
N16215 X-4.035 Y10.018
N16220 X-3.94 Y10.056
N16225 X-3.715 Y10.139
N16230 X-3.49 Y10.22
N16235 X-3.423 Y10.243
N16240 X-3.265 Y10.295
N16245 X-3.039 Y10.361
N16250 X-2.814 Y10.426
N16255 X-2.656 Y10.468
N16260 X-2.589 Y10.484
N16265 X-2.364 Y10.536
N16270 X-2.139 Y10.585
N16275 X-1.914 Y10.629
N16280 X-1.689 Y10.665
N16285 X-1.51 Y10.693
N16290 X-1.463 Y10.7
N16295 X-1.238 Y10.728
N16300 X-1.013 Y10.75
N16305 X-0.788 Y10.77
N16310 X-0.563 Y10.785
N16315 X-0.338 Y10.793
N16320 X-0.113 Y10.799
N16325 X0.113
N16330 X0.338 Y10.793
N16335 X0.563 Y10.785
N16340 X0.788 Y10.77
N16345 X1.013 Y10.75
N16350 X1.238 Y10.728
N16355 X1.463 Y10.7
N16360 X1.51 Y10.693
N16365 X1.689 Y10.665
N16370 X1.914 Y10.629
N16375 X2.139 Y10.585
N16380 X2.364 Y10.536
N16385 X2.589 Y10.484
N16390 X2.656 Y10.468
N16395 X2.814 Y10.426
N16400 X3.039 Y10.361
N16405 X3.265 Y10.295
N16410 X3.423 Y10.243
N16415 X3.49 Y10.22
N16420 X3.715 Y10.139
N16425 X3.94 Y10.056
N16430 X4.035 Y10.018
N16435 X4.165 Y9.963
N16440 X4.39 Y9.866
N16445 X4.553 Y9.793
N16450 X4.615 Y9.764
N16455 X4.841 Y9.652
N16460 X5.007 Y9.567
N16465 X5.066 Y9.537
N16470 X5.291 Y9.414
N16475 X5.416 Y9.342
N16480 X5.516 Y9.283
N16485 X5.741 Y9.147
N16490 X5.789 Y9.117
N16495 X5.966 Y9.
N16500 X6.126 Y8.892
N16505 X6.191 Y8.847
N16510 X6.417 Y8.686
N16515 X6.443 Y8.667
N16520 X6.642 Y8.514
N16525 X6.706 Y8.464
N16530 X6.734 Y8.442
N16535 X6.867 Y8.336
N16540 X7.007 Y8.217
N16545 X7.092 Y8.143
N16550 X7.263 Y7.992
N16555 X7.317 Y7.943
N16560 X7.504 Y7.767
N16565 X7.542 Y7.728
N16570 X7.729 Y7.541
N16575 X7.767 Y7.502
N16580 X7.943 Y7.316
N16585 X7.993 Y7.262
N16590 X8.144 Y7.091
N16595 X8.218 Y7.007
N16600 X8.336 Y6.866
N16605 X8.443 Y6.733
N16610 X8.514 Y6.641
N16615 X8.668 Y6.442
N16620 X8.687 Y6.416
N16625 X8.848 Y6.191
N16630 X8.893 Y6.125
N16635 X9.001 Y5.966
N16640 X9.118 Y5.787
N16645 X9.148 Y5.74
N16650 X9.283 Y5.515
N16655 X9.343 Y5.413
N16660 X9.415 Y5.29
N16665 X9.538 Y5.065
N16670 X9.569 Y5.005
N16675 X9.653 Y4.84
N16680 X9.764 Y4.615
N16685 X9.794 Y4.552
N16690 X9.866 Y4.39
N16695 X9.963 Y4.165
N16700 X10.019 Y4.032
N16705 X10.055 Y3.94
N16710 X10.139 Y3.714
N16715 X10.219 Y3.489
N16720 X10.244 Y3.42
N16725 X10.294 Y3.264
N16730 X10.362 Y3.039
N16735 X10.426 Y2.814
N16740 X10.469 Y2.652
N16745 X10.485 Y2.589
N16750 X10.536 Y2.364
N16755 X10.586 Y2.139
N16760 X10.628 Y1.913
N16765 X10.665 Y1.688
N16770 X10.694 Y1.501
N16775 X10.7 Y1.463
N16780 X10.728 Y1.238
N16785 X10.75 Y1.013
N16790 X10.771 Y0.788
N16795 X10.785 Y0.563
N16800 X10.793 Y0.338
N16805 X10.799 Y0.113
N16810 Y-0.113
N16815 X10.793 Y-0.338
N16820 X10.785 Y-0.563
N16825 X10.771 Y-0.788
N16830 X10.75 Y-1.013
N16835 X10.728 Y-1.238
N16840 X10.7 Y-1.463
N16845 X10.694 Y-1.501
N16850 X10.665 Y-1.688
N16855 X10.628 Y-1.913
N16860 X10.586 Y-2.139
N16865 X10.536 Y-2.364
N16870 X10.485 Y-2.589
N16875 X10.469 Y-2.652
N16880 X10.426 Y-2.814
N16885 X10.362 Y-3.039
N16890 X10.294 Y-3.264
N16895 X10.244 Y-3.42
N16900 X10.219 Y-3.489
N16905 X10.139 Y-3.714
N16910 X10.055 Y-3.94
N16915 X10.019 Y-4.032
N16920 X9.963 Y-4.165
N16925 X9.866 Y-4.39
N16930 X9.794 Y-4.552
N16935 X9.764 Y-4.615
N16940 X9.653 Y-4.84
N16945 X9.569 Y-5.005
N16950 X9.538 Y-5.065
N16955 X9.415 Y-5.29
N16960 X9.343 Y-5.413
N16965 X9.283 Y-5.515
N16970 X9.148 Y-5.74
N16975 X9.118 Y-5.787
N16980 X9.001 Y-5.966
N16985 X8.893 Y-6.125
N16990 X8.848 Y-6.191
N16995 X8.687 Y-6.416
N17000 X8.668 Y-6.442
N17005 X8.514 Y-6.641
N17010 X8.443 Y-6.733
N17015 X8.336 Y-6.866
N17020 X8.218 Y-7.007
N17025 X8.144 Y-7.091
N17030 X7.993 Y-7.262
N17035 X7.943 Y-7.316
N17040 X7.767 Y-7.502
N17045 X7.729 Y-7.541
N17050 X7.542 Y-7.728
N17055 X7.504 Y-7.767
N17060 X7.317 Y-7.943
N17065 X7.263 Y-7.992
N17070 X7.092 Y-8.143
N17075 X7.007 Y-8.217
N17080 X6.867 Y-8.336
N17085 X6.734 Y-8.442
N17090 X6.642 Y-8.514
N17095 X6.443 Y-8.667
N17100 X6.417 Y-8.686
N17105 X6.191 Y-8.847
N17110 X6.126 Y-8.892
N17115 X5.966 Y-9.
N17120 X5.789 Y-9.117
N17125 X5.741 Y-9.147
N17130 X5.516 Y-9.283
N17135 X5.416 Y-9.342
N17140 X5.291 Y-9.414
N17145 X5.066 Y-9.537
N17150 X5.007 Y-9.567
N17155 X4.841 Y-9.652
N17160 X4.615 Y-9.764
N17165 X4.553 Y-9.793
N17170 X4.39 Y-9.866
N17175 X4.165 Y-9.963
N17180 X4.035 Y-10.018
N17185 X3.94 Y-10.056
N17190 X3.715 Y-10.139
N17195 X3.49 Y-10.22
N17200 X3.423 Y-10.243
N17205 X3.265 Y-10.295
N17210 X3.039 Y-10.361
N17215 X2.814 Y-10.426
N17220 X2.656 Y-10.468
N17225 X2.589 Y-10.484
N17230 X2.364 Y-10.536
N17235 X2.139 Y-10.585
N17240 X1.914 Y-10.629
N17245 X1.689 Y-10.665
N17250 X1.51 Y-10.693
N17255 X1.463 Y-10.7
N17260 X1.238 Y-10.728
N17265 X1.013 Y-10.75
N17270 X0.788 Y-10.77
N17275 X0.563 Y-10.785
N17280 X0.338 Y-10.793
N17285 X0.113 Y-10.799
N17290 X-0.113
N17295 X-0.338 Y-10.793
N17300 X-0.563 Y-10.785
N17305 X-0.788 Y-10.77
N17310 X-1.013 Y-10.75
N17315 X-1.238 Y-10.728
N17320 X-1.463 Y-10.7
N17325 X-1.51 Y-10.693
N17330 X-1.689 Y-10.665
N17335 X-1.914 Y-10.629
N17340 X-2.139 Y-10.585
N17345 X-2.364 Y-10.536
N17350 X-2.589 Y-10.484
N17355 X-2.656 Y-10.468
N17360 X-2.814 Y-10.426
N17365 X-3.039 Y-10.361
N17370 X-3.265 Y-10.295
N17375 X-3.423 Y-10.243
N17380 X-3.49 Y-10.22
N17385 X-3.715 Y-10.139
N17390 X-3.94 Y-10.056
N17395 X-4.035 Y-10.018
N17400 X-4.165 Y-9.963
N17405 X-4.39 Y-9.866
N17410 X-4.553 Y-9.793
N17415 X-4.615 Y-9.764
N17420 X-4.841 Y-9.652
N17425 X-5.007 Y-9.567
N17430 X-5.066 Y-9.537
N17435 X-5.291 Y-9.414
N17440 X-5.416 Y-9.342
N17445 X-5.516 Y-9.283
N17450 X-5.741 Y-9.147
N17455 X-5.789 Y-9.117
N17460 X-5.966 Y-9.
N17465 X-6.126 Y-8.892
N17470 X-6.191 Y-8.847
N17475 X-6.417 Y-8.686
N17480 X-6.443 Y-8.667
N17485 X-6.642 Y-8.514
N17490 X-6.734 Y-8.442
N17495 X-6.867 Y-8.336
N17500 X-7.007 Y-8.217
N17505 X-7.092 Y-8.143
N17510 X-7.263 Y-7.992
N17515 X-7.317 Y-7.943
N17520 X-7.504 Y-7.767
N17525 X-7.542 Y-7.728
N17530 X-7.729 Y-7.541
N17535 X-7.767 Y-7.502
N17540 X-7.943 Y-7.316
N17545 X-7.993 Y-7.262
N17550 X-8.144 Y-7.091
N17555 X-8.218 Y-7.007
N17560 X-8.336 Y-6.866
N17565 X-8.443 Y-6.733
N17570 X-8.514 Y-6.641
N17575 X-8.668 Y-6.442
N17580 X-8.687 Y-6.416
N17585 X-8.848 Y-6.191
N17590 X-8.893 Y-6.125
N17595 X-9.001 Y-5.966
N17600 X-9.118 Y-5.787
N17605 X-9.148 Y-5.74
N17610 X-9.155 Y-5.729
N17615 X-9.357 Y-5.391
N17620 X-9.542 Y-5.059 Z19.999
N17625 X-9.72 Y-4.707 Z19.997
N17630 X-9.881 Y-4.359 Z19.994
N17635 X-10.033 Y-4.003 Z19.991
N17640 X-10.171 Y-3.638 Z19.987
N17645 X-10.297 Y-3.273 Z19.983
N17650 X-10.354 Y-3.086 Z19.98
N17655 X-10.41 Y-2.898 Z19.977
N17660 X-10.461 Y-2.712 Z19.974
N17665 X-10.509 Y-2.524 Z19.971
N17670 X-10.552 Y-2.334 Z19.968
N17675 X-10.595 Y-2.144 Z19.965
N17680 X-10.632 Y-1.957 Z19.962
N17685 X-10.665 Y-1.768 Z19.958
N17690 X-10.697 Y-1.577 Z19.954
N17695 X-10.725 Y-1.386 Z19.951
N17700 X-10.749 Y-1.191 Z19.947
N17705 X-10.769 Y-0.997 Z19.942
N17710 X-10.788 Y-0.804 Z19.938
N17715 X-10.802 Y-0.61 Z19.934
N17720 X-10.812 Y-0.416 Z19.929
N17725 X-10.819 Y-0.222 Z19.925
N17730 X-10.824 Y-0.03 Z19.92
N17735 X-10.823 Y0.162 Z19.915
N17740 X-10.821 Y0.26 Z19.913
N17745 X-10.819 Y0.357 Z19.91
N17750 X-10.817 Y0.454 Z19.907
N17755 X-10.814 Y0.551 Z19.905
N17760 X-10.809 Y0.648 Z19.902
N17765 X-10.804 Y0.746 Z19.9
N17770 X-10.797 Y0.843 Z19.897
N17775 X-10.789 Y0.94 Z19.894
N17780 X-10.781 Y1.038 Z19.891
N17785 X-10.772 Y1.135 Z19.889
N17790 X-10.763 Y1.232 Z19.886
N17795 X-10.753 Y1.329 Z19.883
N17800 X-10.741 Y1.425 Z19.88
N17805 X-10.729 Y1.521 Z19.877
N17810 X-10.715 Y1.617 Z19.874
N17815 X-10.7 Y1.713 Z19.872
N17820 X-10.686 Y1.808 Z19.869
N17825 X-10.671 Y1.903 Z19.866
N17830 X-10.655 Y1.998 Z19.863
N17835 X-10.638 Y2.092 Z19.86
N17840 X-10.619 Y2.19 Z19.857
N17845 X-10.598 Y2.287 Z19.853
N17850 X-10.577 Y2.384 Z19.85
N17855 X-10.557 Y2.481 Z19.847
N17860 X-10.536 Y2.575 Z19.844
N17865 X-10.514 Y2.669 Z19.841
N17870 X-10.49 Y2.763 Z19.838
N17875 X-10.466 Y2.857 Z19.834
N17880 X-10.44 Y2.95 Z19.831
N17885 X-10.414 Y3.044 Z19.828
N17890 X-10.388 Y3.137 Z19.825
N17895 X-10.361 Y3.231 Z19.821
N17900 X-10.333 Y3.324 Z19.818
N17905 X-10.304 Y3.417 Z19.815
N17910 X-10.272 Y3.51 Z19.811
N17915 X-10.241 Y3.602 Z19.808
N17920 X-10.209 Y3.694 Z19.804
N17925 X-10.177 Y3.786 Z19.801
N17930 X-10.144 Y3.878 Z19.798
N17935 X-10.11 Y3.969 Z19.794
N17940 X-10.075 Y4.06 Z19.791
N17945 X-10.039 Y4.15 Z19.787
N17950 X-10.002 Y4.24 Z19.784
N17955 X-9.964 Y4.329 Z19.781
N17960 X-9.926 Y4.419 Z19.777
N17965 X-9.888 Y4.508 Z19.774
N17970 X-9.849 Y4.597 Z19.771
N17975 X-9.808 Y4.685 Z19.767
N17980 X-9.765 Y4.774 Z19.764
N17985 X-9.722 Y4.862 Z19.76
N17990 X-9.678 Y4.951 Z19.757
N17995 X-9.635 Y5.039 Z19.753
N18000 X-9.591 Y5.126 Z19.75
N18005 X-9.545 Y5.212 Z19.747
N18010 X-9.499 Y5.298 Z19.743
N18015 X-9.451 Y5.384 Z19.74
N18020 X-9.354 Y5.552 Z19.733
N18025 X-9.305 Y5.637 Z19.73
N18030 X-9.256 Y5.721 Z19.726
N18035 X-9.206 Y5.804 Z19.723
N18040 X-9.154 Y5.887 Z19.719
N18045 X-9.101 Y5.969 Z19.716
N18050 X-9.048 Y6.051 Z19.712
N18055 X-8.94 Y6.213 Z19.706
N18060 X-8.885 Y6.294 Z19.702
N18065 X-8.83 Y6.373 Z19.699
N18070 X-8.773 Y6.454 Z19.695
N18075 X-8.715 Y6.532 Z19.692
N18080 X-8.656 Y6.611 Z19.689
N18085 X-8.597 Y6.689 Z19.685
N18090 X-8.538 Y6.766 Z19.682
N18095 X-8.479 Y6.844 Z19.678
N18100 X-8.418 Y6.92 Z19.675
N18105 X-8.356 Y6.996 Z19.672
N18110 X-8.294 Y7.071 Z19.668
N18115 X-8.23 Y7.146 Z19.665
N18120 X-8.165 Y7.22 Z19.661
N18125 X-8.101 Y7.295 Z19.658
N18130 X-8.037 Y7.367 Z19.654
N18135 X-7.972 Y7.44 Z19.651
N18140 X-7.906 Y7.511 Z19.648
N18145 X-7.839 Y7.581 Z19.644
N18150 X-7.771 Y7.652 Z19.641
N18155 X-7.634 Y7.792 Z19.634
N18160 X-7.566 Y7.861 Z19.631
N18165 X-7.495 Y7.929 Z19.627
N18170 X-7.425 Y7.997 Z19.624
N18175 X-7.353 Y8.064 Z19.62
N18180 X-7.28 Y8.13 Z19.617
N18185 X-7.207 Y8.196 Z19.613
N18190 X-7.133 Y8.262 Z19.61
N18195 X-7.059 Y8.328 Z19.607
N18200 X-6.985 Y8.393 Z19.603
N18205 X-6.91 Y8.455 Z19.6
N18210 X-6.835 Y8.517 Z19.596
N18215 X-6.759 Y8.578 Z19.593
N18220 X-6.606 Y8.699 Z19.586
N18225 X-6.528 Y8.76 Z19.583
N18230 X-6.45 Y8.819 Z19.579
N18235 X-6.371 Y8.878 Z19.576
N18240 X-6.291 Y8.935 Z19.572
N18245 X-6.13 Y9.046 Z19.566
N18250 X-6.05 Y9.102 Z19.562
N18255 X-5.97 Y9.158 Z19.559
N18260 X-5.888 Y9.212 Z19.555
N18265 X-5.805 Y9.265 Z19.552
N18270 X-5.723 Y9.318 Z19.548
N18275 X-5.639 Y9.369 Z19.545
N18280 X-5.472 Y9.47 Z19.538
N18285 X-5.387 Y9.52 Z19.535
N18290 X-5.302 Y9.569 Z19.531
N18295 X-5.217 Y9.618 Z19.528
N18300 X-5.13 Y9.664 Z19.524
N18305 X-5.044 Y9.71 Z19.521
N18310 X-4.957 Y9.755 Z19.518
N18315 X-4.87 Y9.801 Z19.514
N18320 X-4.783 Y9.846 Z19.511
N18325 X-4.695 Y9.889 Z19.507
N18330 X-4.606 Y9.932 Z19.504
N18335 X-4.517 Y9.974 Z19.5
N18340 X-4.427 Y10.015 Z19.497
N18345 X-4.337 Y10.055 Z19.494
N18350 X-4.247 Y10.094 Z19.49
N18355 X-4.157 Y10.133 Z19.487
N18360 X-4.067 Y10.172 Z19.483
N18365 X-3.976 Y10.209 Z19.48
N18370 X-3.884 Y10.244 Z19.476
N18375 X-3.792 Y10.279 Z19.473
N18380 X-3.608 Y10.348 Z19.466
N18385 X-3.516 Y10.382 Z19.463
N18390 X-3.422 Y10.414 Z19.459
N18395 X-3.329 Y10.445 Z19.456
N18400 X-3.235 Y10.476 Z19.452
N18405 X-3.14 Y10.504 Z19.449
N18410 X-3.046 Y10.532 Z19.445
N18415 X-2.952 Y10.561 Z19.442
N18420 X-2.858 Y10.589 Z19.439
N18425 X-2.764 Y10.616 Z19.435
N18430 X-2.669 Y10.64 Z19.432
N18435 X-2.574 Y10.664 Z19.428
N18440 X-2.479 Y10.687 Z19.425
N18445 X-2.287 Y10.732 Z19.418
N18450 X-2.191 Y10.754 Z19.415
N18455 X-2.094 Y10.774 Z19.411
N18460 X-1.997 Y10.794 Z19.408
N18465 X-1.901 Y10.812 Z19.404
N18470 X-1.803 Y10.829 Z19.401
N18475 X-1.706 Y10.845 Z19.397
N18480 X-1.609 Y10.861 Z19.394
N18485 X-1.512 Y10.878 Z19.39
N18490 X-1.415 Y10.892 Z19.387
N18495 X-1.317 Y10.905 Z19.384
N18500 X-1.219 Y10.917 Z19.38
N18505 X-1.121 Y10.928 Z19.377
N18510 X-1.023 Y10.938 Z19.373
N18515 X-0.925 Y10.949 Z19.37
N18520 X-0.827 Y10.958 Z19.366
N18525 X-0.729 Y10.967 Z19.363
N18530 X-0.631 Y10.974 Z19.36
N18535 X-0.533 Y10.979 Z19.356
N18540 X-0.434 Y10.984 Z19.353
N18545 X-0.335 Y10.988 Z19.349
N18550 X-0.236 Y10.992 Z19.346
N18555 X-0.136 Y10.996 Z19.342
N18560 X-0.038 Y10.998 Z19.339
N18565 X0.06 Y10.999 Z19.335
N18570 X0.158 Z19.332
N18575 X0.256 Y10.997 Z19.329
N18580 X0.355 Y10.995 Z19.325
N18585 X0.454 Y10.993 Z19.322
N18590 X0.553 Y10.99 Z19.318
N18595 X0.651 Y10.986 Z19.315
N18600 X0.75 Y10.981 Z19.311
N18605 X0.848 Y10.974 Z19.308
N18610 X0.947 Y10.966 Z19.304
N18615 X1.045 Y10.958 Z19.301
N18620 X1.144 Y10.95 Z19.297
N18625 X1.243 Y10.941 Z19.294
N18630 X1.341 Y10.93 Z19.291
N18635 X1.44 Y10.919 Z19.287
N18640 X1.538 Y10.906 Z19.284
N18645 X1.635 Y10.892 Z19.28
N18650 X1.733 Y10.877 Z19.277
N18655 X1.831 Y10.863 Z19.273
N18660 X1.928 Y10.848 Z19.27
N18665 X2.025 Y10.832 Z19.266
N18670 X2.122 Y10.814 Z19.263
N18675 X2.219 Y10.796 Z19.26
N18680 X2.316 Y10.776 Z19.256
N18685 X2.51 Y10.735 Z19.249
N18690 X2.606 Y10.713 Z19.246
N18695 X2.702 Y10.691 Z19.242
N18700 X2.799 Y10.667 Z19.239
N18705 X2.894 Y10.642 Z19.235
N18710 X2.99 Y10.616 Z19.232
N18715 X3.085 Y10.589 Z19.228
N18720 X3.18 Y10.562 Z19.225
N18725 X3.276 Y10.536 Z19.222
N18730 X3.371 Y10.507 Z19.218
N18735 X3.465 Y10.477 Z19.215
N18740 X3.559 Y10.446 Z19.211
N18745 X3.653 Y10.414 Z19.208
N18750 X3.746 Y10.382 Z19.204
N18755 X3.84 Y10.349 Z19.201
N18760 X3.933 Y10.315 Z19.197
N18765 X4.026 Y10.281 Z19.194
N18770 X4.119 Y10.246 Z19.19
N18775 X4.211 Y10.208 Z19.187
N18780 X4.302 Y10.171 Z19.184
N18785 X4.394 Y10.132 Z19.18
N18790 X4.485 Y10.094 Z19.177
N18795 X4.576 Y10.055 Z19.174
N18800 X4.666 Y10.015 Z19.17
N18805 X4.756 Y9.974 Z19.167
N18810 X4.845 Y9.931 Z19.164
N18815 X4.934 Y9.887 Z19.16
N18820 X5.023 Y9.843 Z19.157
N18825 X5.112 Y9.799 Z19.154
N18830 X5.201 Y9.754 Z19.151
N18835 X5.289 Y9.708 Z19.148
N18840 X5.376 Y9.661 Z19.144
N18845 X5.463 Y9.613 Z19.141
N18850 X5.549 Y9.564 Z19.138
N18855 X5.635 Y9.514 Z19.135
N18860 X5.721 Y9.464 Z19.132
N18865 X5.806 Y9.414 Z19.129
N18870 X5.891 Y9.362 Z19.126
N18875 X5.976 Y9.31 Z19.123
N18880 X6.059 Y9.256 Z19.12
N18885 X6.141 Y9.201 Z19.117
N18890 X6.224 Y9.146 Z19.115
N18895 X6.306 Y9.091 Z19.112
N18900 X6.389 Y9.036 Z19.109
N18905 X6.471 Y8.98 Z19.106
N18910 X6.551 Y8.921 Z19.103
N18915 X6.631 Y8.863 Z19.101
N18920 X6.711 Y8.803 Z19.098
N18925 X6.79 Y8.743 Z19.095
N18930 X6.869 Y8.683 Z19.093
N18935 X6.947 Y8.621 Z19.09
N18940 X7.025 Y8.56 Z19.088
N18945 X7.102 Y8.497 Z19.085
N18950 X7.178 Y8.433 Z19.082
N18955 X7.328 Y8.303 Z19.078
N18960 X7.478 Y8.173 Z19.073
N18965 X7.624 Y8.038 Z19.068
N18970 X7.767 Y7.901 Z19.064
N18975 X7.909 Y7.761 Z19.059
N18980 X8.049 Y7.62 Z19.055
N18985 X8.184 Y7.474 Z19.051
N18990 X8.318 Y7.326 Z19.047
N18995 X8.45 Y7.177 Z19.043
N19000 X8.578 Y7.026 Z19.039
N19005 X8.702 Y6.87 Z19.036
N19010 X8.825 Y6.714 Z19.032
N19015 X8.946 Y6.556 Z19.029
N19020 X9.062 Y6.394 Z19.026
N19025 X9.176 Y6.231 Z19.023
N19030 X9.288 Y6.066 Z19.02
N19035 X9.396 Y5.899 Z19.018
N19040 X9.5 Y5.729 Z19.015
N19045 X9.702 Y5.386 Z19.011
N19050 X9.888 Y5.034 Z19.007
N19055 X10.065 Y4.677 Z19.004
N19060 X10.225 Y4.313 Z19.002
N19065 X10.375 Y3.944 Z19.001
N19070 X10.509 Y3.569 Z19.
N19075 X10.559 Y3.42
N19080 X10.608 Y3.264
N19085 X10.674 Y3.039
N19090 X10.694 Y2.97
N19095 X10.737 Y2.814
N19100 X10.793 Y2.589
N19105 X10.843 Y2.364
N19110 X10.892 Y2.139
N19115 X10.919 Y1.99
N19120 X10.933 Y1.913
N19125 X10.969 Y1.688
N19130 X11.002 Y1.463
N19135 X11.03 Y1.238
N19140 X11.052 Y1.013
N19145 X11.072 Y0.788
N19150 X11.085 Y0.563
N19155 X11.093 Y0.338
N19160 X11.099 Y0.113
N19165 Y-0.113
N19170 X11.093 Y-0.338
N19175 X11.085 Y-0.563
N19180 X11.072 Y-0.788
N19185 X11.052 Y-1.013
N19190 X11.03 Y-1.238
N19195 X11.002 Y-1.463
N19200 X10.969 Y-1.688
N19205 X10.933 Y-1.913
N19210 X10.919 Y-1.99
N19215 X10.892 Y-2.139
N19220 X10.843 Y-2.364
N19225 X10.793 Y-2.589
N19230 X10.737 Y-2.814
N19235 X10.694 Y-2.97
N19240 X10.674 Y-3.039
N19245 X10.608 Y-3.264
N19250 X10.537 Y-3.489
N19255 X10.469 Y-3.684
N19260 X10.458 Y-3.714
N19265 X10.377 Y-3.94
N19270 X10.289 Y-4.165
N19275 X10.244 Y-4.272
N19280 X10.193 Y-4.39
N19285 X10.094 Y-4.615
N19290 X10.019 Y-4.777
N19295 X9.988 Y-4.84
N19300 X9.875 Y-5.065
N19305 X9.794 Y-5.223
N19310 X9.757 Y-5.29
N19315 X9.631 Y-5.515
N19320 X9.569 Y-5.622
N19325 X9.498 Y-5.74
N19330 X9.36 Y-5.966
N19335 X9.343 Y-5.991
N19340 X9.211 Y-6.191
N19345 X9.118 Y-6.328
N19350 X9.057 Y-6.416
N19355 X8.893 Y-6.641
N19360 X8.719 Y-6.866
N19365 X8.668 Y-6.932
N19370 X8.539 Y-7.091
N19375 X8.443 Y-7.205
